!!!!SEGMENT: pl-cz--ii-154--001_maader-ludwik--litaniae-lauretanae-kyrie.krn
!!!cenid: 17xx:968
!!!COM: Maader, Ludwik
!!!COM-rismid: pe30020328
!!!CDT: <1794->1798
!!!CNT:
!!!OTL: Litaniae Lauretanae - Kyrie
!!!PDT: 1786
!!!AGN: Sacred; Mass section
!!!SMS-siglum: PL-CZ
!!!SMS-shelfmark: II-154
!!!SMS-shelfwork: 001 W
!!!SMS-variant:
!!!SMS-altvar:
!!!NIFC-rismid: 300000757
!!!URL-scan: http://repozytorium.nifc.pl/skany/pl-cz-nut--ii-154
!!!ONB-nifc: UWAGA: w okładce fragment innego utworu. Uwaga: Litaniae (Kyrie) i Salve Regina to osobne utwory
!!!key: C
**kern	**fba	**dynam	**kern	**dynam	**kern	**dynam	**kern	**text	**kern	**text	**kern	**text	**kern	**text
*	*	*	*group2	*	*group2	*	*group1	*	*group1	*	*group1	*	*group1	*
*part7	*part7	*part7	*part6	*part6	*part5	*part5	*part4	*part4	*part3	*part3	*part2	*part2	*part1	*part1
*staff7	*	*	*staff6	*	*staff5	*	*staff4	*staff4	*staff3	*staff3	*staff2	*staff2	*staff1	*staff1
*I"Organo	*	*	*I"Violino Secondo	*	*I"Violino Primo obl:	*	*I"Baſso	*	*I"Tenore	*	*I"Alto	*	*I"Canto	*
*I'org	*	*	*I'vl 2	*	*I'vl 1	*	*I'B	*	*I'T	*	*I'A	*	*I'S	*
*Iorgan	*	*	*Ivioln	*	*Ivioln	*	*Ibass	*	*Itenor	*	*Ialto	*	*Isoprn	*
*ICklav	*	*	*ICstr	*	*ICstr	*	*ICvox	*	*ICvox	*	*ICvox	*	*ICvox	*
*IGcont	*	*	*	*	*	*	*IGcoro	*	*IGcoro	*	*IGcoro	*	*IGcoro	*
*clefF4	*	*	*clefG2	*	*clefG2	*	*clefF4	*	*clefC4	*	*clefC3	*	*clefC1	*
*k[]	*	*	*k[]	*	*k[]	*	*k[]	*	*k[]	*	*k[]	*	*k[]	*
*C:	*	*	*C:	*	*C:	*	*C:	*	*C:	*	*C:	*	*C:	*
*M4/4	*	*	*M4/4	*	*M4/4	*	*M4/4	*	*M4/4	*	*M4/4	*	*M4/4	*
*met(c)	*	*	*met(c)	*	*met(c)	*	*met(c)	*	*met(c)	*	*met(c)	*	*met(c)	*
*all\left or middle or right	*	*	*all\left or middle or right	*	*all\left or middle or right	*	*all\left or middle or right	*	*all\left or middle or right	*	*all\left or middle or right	*	*all\left or middle or right	*
*2\right	*	*	*2\right	*	*2\right	*	*2\right	*	*2\right	*	*2\right	*	*2\right	*
=1	=1	=1	=1	=1	=1	=1	=1	=1	=1	=1	=1	=1	=1	=1
!LO:TX:a:i:t=Allo moderato	!	!	!	!	!	!	!	!	!	!	!	!	!	!
!	!	!	!LO:TX:a:i:t=12.	!	!LO:TX:b:i:t=Lỹtaniae	!	!	!	!LO:TX:a:i:t=allo mod&colon;	!	!LO:TX:a:i:t=Lytaniae	!	!LO:TX:a:i:t=allo mod.	!
!LO:TX:a:i:t=Lÿtaniae Convety.:note=Conventu?	!	!	!LO:TX:a:i:t=Lytaniae	!	!LO:TX:a:i:t=Solo	!	!LO:TX:a:i:t=allo mod&colon;	!	!LO:TX:b:i:t=Lỹtaniae	!	!LO:TX:a:i:t=allo mod&colon;	!	!LO:TX:b:i:t=Lÿtaniae	!
!	!	!	!	!	!	!	!LO:TX:a:i:t=Lỹtaniae Conven<..>:note=abrewiacja nieczytelna, Conventu?	!	!	!	!	!	!	!
!	!	!LO:DY:b:t=pia	!	!	!	!	!	!	!	!	!	!	!	!
8r	.	p	1r	.	4cc\	.	1r	.	1r	.	1r	.	1r	.
!LO:TX:a:i:t=Solo	!	!	!	!	!	!	!	!	!	!	!	!	!	!
8C\L	.	.	.	.	.	.	.	.	.	.	.	.	.	.
8C\	.	.	.	.	16ff\LL	.	.	.	.	.	.	.	.	.
.	.	.	.	.	16ee\	.	.	.	.	.	.	.	.	.
8E\J	.	.	.	.	16dd\	.	.	.	.	.	.	.	.	.
.	.	.	.	.	16cc\JJ	.	.	.	.	.	.	.	.	.
8r	.	.	.	.	16aa\LL	.	.	.	.	.	.	.	.	.
.	.	.	.	.	16gg\JJ	.	.	.	.	.	.	.	.	.
8G\L	.	.	.	.	8.gg\L	.	.	.	.	.	.	.	.	.
8G\	.	.	.	.	.	.	.	.	.	.	.	.	.	.
.	.	.	.	.	16ff\L	.	.	.	.	.	.	.	.	.
8B\J	.	.	.	.	16ee\	.	.	.	.	.	.	.	.	.
.	.	.	.	.	16dd\JJ	.	.	.	.	.	.	.	.	.
=2	=2	=2	=2	=2	=2	=2	=2	=2	=2	=2	=2	=2	=2	=2
!LO:TX:t=P:problem=mixed beam	!	!	!	!	!	!	!	!	!	!	!	!	!	!
.	.	.	.	.	8qqee/	.	.	.	.	.	.	.	.	.
8c\L	.	.	1r	.	16dd\LL	.	1r	.	1r	.	1r	.	1r	.
.	.	.	.	.	16cc\JJ	.	.	.	.	.	.	.	.	.
8C/J	.	.	.	.	8.cc\L	.	.	.	.	.	.	.	.	.
8r	.	.	.	.	.	.	.	.	.	.	.	.	.	.
.	.	.	.	.	16eee\L	.	.	.	.	.	.	.	.	.
8F\	4 2	.	.	.	16ddd\	.	.	.	.	.	.	.	.	.
.	.	.	.	.	16bb\JJ	.	.	.	.	.	.	.	.	.
8E\L	6	.	.	.	16ccc\LL	.	.	.	.	.	.	.	.	.
.	.	.	.	.	16eee\	.	.	.	.	.	.	.	.	.
8C\	.	.	.	.	16ee\	.	.	.	.	.	.	.	.	.
.	.	.	.	.	16gg\JJ	.	.	.	.	.	.	.	.	.
.	.	.	.	.	8qqgg/	.	.	.	.	.	.	.	.	.
8D\	7	.	.	.	4ff\	.	.	.	.	.	.	.	.	.
8GG\J	7	.	.	.	.	.	.	.	.	.	.	.	.	.
=3	=3	=3	=3	=3	=3	=3	=3	=3	=3	=3	=3	=3	=3	=3
!	!	!	!	!	!LO:LB:g=original	!	!	!	!	!	!	!	!	!
4C/	.	.	1r	.	[4ee\	.	1r	.	1r	.	1r	.	1r	.
!LO:TX:t=P:problem=mixed beam	!	!	!	!	!	!	!	!	!	!	!	!	!	!
8C/L	.	.	.	.	16ee\LL]	.	.	.	.	.	.	.	.	.
.	.	.	.	.	16ee\	.	.	.	.	.	.	.	.	.
8F\J	4 2	.	.	.	16dd\	.	.	.	.	.	.	.	.	.
.	.	.	.	.	16b\JJ	.	.	.	.	.	.	.	.	.
!	!	!	!	!	!LO:TX:t=P:problem=mixed beam	!	!	!	!	!	!	!	!	!
8E\L	.	.	.	.	16cc\LL	.	.	.	.	.	.	.	.	.
.	.	.	.	.	16ee\	.	.	.	.	.	.	.	.	.
8c\J	.	.	.	.	16e/	.	.	.	.	.	.	.	.	.
.	.	.	.	.	16g/JJ	.	.	.	.	.	.	.	.	.
.	.	.	.	.	8qqg/	.	.	.	.	.	.	.	.	.
8c\L	.	.	.	.	4f/	.	.	.	.	.	.	.	.	.
8G\J	.	.	.	.	.	.	.	.	.	.	.	.	.	.
=4	=4	=4	=4	=4	=4	=4	=4	=4	=4	=4	=4	=4	=4	=4
.	.	.	.	.	8qqf/	.	.	.	.	.	.	.	.	.
4c\	.	.	1r	.	4e/	.	1r	.	1r	.	1r	.	1r	.
8r	.	.	.	.	8gM/m/L	.	.	.	.	.	.	.	.	.
8F\	4 2	.	.	.	16a/L	.	.	.	.	.	.	.	.	.
.	.	.	.	.	16b/JJ	.	.	.	.	.	.	.	.	.
8E\L	6	.	.	.	8ccM/m\L	.	.	.	.	.	.	.	.	.
8C\	.	.	.	.	16dd\L	.	.	.	.	.	.	.	.	.
.	.	.	.	.	16ee\JJ	.	.	.	.	.	.	.	.	.
8BB\	.	.	.	.	8ff\L	.	.	.	.	.	.	.	.	.
8C\J	.	.	.	.	8ee\J	.	.	.	.	.	.	.	.	.
=5	=5	=5	=5	=5	=5	=5	=5	=5	=5	=5	=5	=5	=5	=5
.	.	.	.	.	8qqee/	.	.	.	.	.	.	.	.	.
4G\	.	.	1r	.	4dd\	.	1r	.	1r	.	1r	.	1r	.
8r	.	.	.	.	8ggM/m\L	.	.	.	.	.	.	.	.	.
8F\	4 2	.	.	.	16aa\L	.	.	.	.	.	.	.	.	.
.	.	.	.	.	16bb\JJ	.	.	.	.	.	.	.	.	.
8E\L	6	.	.	.	8cccM/m\L	.	.	.	.	.	.	.	.	.
8c\	.	.	.	.	16ddd\L	.	.	.	.	.	.	.	.	.
.	.	.	.	.	16eee\JJ	.	.	.	.	.	.	.	.	.
8B\	.	.	.	.	8fff\L	.	.	.	.	.	.	.	.	.
8c\J	.	.	.	.	8eee\J	.	.	.	.	.	.	.	.	.
=6	=6	=6	=6	=6	=6	=6	=6	=6	=6	=6	=6	=6	=6	=6
.	.	.	.	.	8qqeee/	.	.	.	.	.	.	.	.	.
4G\	.	.	1r	.	4ddd\	.	1r	.	1r	.	1r	.	1r	.
8r	.	.	.	.	16ggg\LL	.	.	.	.	.	.	.	.	.
.	.	.	.	.	16eee\	.	.	.	.	.	.	.	.	.
8E\	.	.	.	.	16ccc\	.	.	.	.	.	.	.	.	.
.	.	.	.	.	16gg\JJ	.	.	.	.	.	.	.	.	.
!	!	!	!	!	!LO:LB:g=original	!	!	!	!	!	!	!	!	!
8F\L	.	.	.	.	8aaW\L	.	.	.	.	.	.	.	.	.
8D\J	.	.	.	.	8gg\J	.	.	.	.	.	.	.	.	.
8r	.	.	.	.	16fff\LL	.	.	.	.	.	.	.	.	.
.	.	.	.	.	16ddd\	.	.	.	.	.	.	.	.	.
8D\	.	.	.	.	16bb\	.	.	.	.	.	.	.	.	.
.	.	.	.	.	16ff\JJ	.	.	.	.	.	.	.	.	.
=7	=7	=7	=7	=7	=7	=7	=7	=7	=7	=7	=7	=7	=7	=7
8E\L	.	.	1r	.	8ggW\L	.	1r	.	1r	.	1r	.	1r	.
8C\J	.	.	.	.	8ee\J	.	.	.	.	.	.	.	.	.
8r	.	.	.	.	16eee\LL	.	.	.	.	.	.	.	.	.
.	.	.	.	.	16ccc\	.	.	.	.	.	.	.	.	.
8C\L	.	.	.	.	16aa\	.	.	.	.	.	.	.	.	.
.	.	.	.	.	16ee\JJ	.	.	.	.	.	.	.	.	.
8D\	.	.	.	.	8ffw\L	.	.	.	.	.	.	.	.	.
8GG\J	.	.	.	.	8dd\J	.	.	.	.	.	.	.	.	.
8r	.	.	.	.	16ddd\LL	.	.	.	.	.	.	.	.	.
.	.	.	.	.	16bb\	.	.	.	.	.	.	.	.	.
8BB/	.	.	.	.	16gg\	.	.	.	.	.	.	.	.	.
.	.	.	.	.	16dd\JJ	.	.	.	.	.	.	.	.	.
=8	=8	=8	=8	=8	=8	=8	=8	=8	=8	=8	=8	=8	=8	=8
8C\L	.	.	1r	.	8ee\L	.	1r	.	1r	.	1r	.	1r	.
16E\L	.	.	.	.	8cc\J	.	.	.	.	.	.	.	.	.
16G\JJ	.	.	.	.	.	.	.	.	.	.	.	.	.	.
!	!	!	!	!	!LO:TUP:a:global:problem=klamra łukowa, kropka zamiast numeru	!	!	!	!	!	!	!	!	!
8c\L	.	.	.	.	24ee\LL	.	.	.	.	.	.	.	.	.
.	.	.	.	.	24dd\	.	.	.	.	.	.	.	.	.
.	.	.	.	.	24cc\JJ	.	.	.	.	.	.	.	.	.
8c\	.	.	.	.	16ccc|>\LL	.	.	.	.	.	.	.	.	.
.	.	.	.	.	16cc|>\JJ	.	.	.	.	.	.	.	.	.
!	!	!	!	!	!LO:TUP:a:	!	!	!	!	!	!	!	!	!
8A\	.	.	.	.	24ee\LL	.	.	.	.	.	.	.	.	.
.	.	.	.	.	24dd\	.	.	.	.	.	.	.	.	.
.	.	.	.	.	24cc\JJ	.	.	.	.	.	.	.	.	.
8A\J	.	.	.	.	16ccc|>\LL	.	.	.	.	.	.	.	.	.
.	.	.	.	.	16cc|>\JJ	.	.	.	.	.	.	.	.	.
!	!	!	!	!	!LO:TUP:a:	!	!	!	!	!	!	!	!	!
8E\L	.	.	.	.	24ee\LL	.	.	.	.	.	.	.	.	.
.	.	.	.	.	24dd\	.	.	.	.	.	.	.	.	.
.	.	.	.	.	24cc\JJ	.	.	.	.	.	.	.	.	.
8E\J	.	.	.	.	16ccc|>\LL	.	.	.	.	.	.	.	.	.
.	.	.	.	.	16cc|>\JJ	.	.	.	.	.	.	.	.	.
=9	=9	=9	=9	=9	=9	=9	=9	=9	=9	=9	=9	=9	=9	=9
!	!	!	!	!	!LO:LB:g=original	!	!	!	!	!	!	!	!	!
!	!	!	!LO:TX:a:i:t=allo moderato	!	!LO:TX:t=P:problem=mixed beam	!	!	!	!	!	!	!	!	!
4F\	.	.	1r	.	16aa|>\LL	.	1r	.	1r	.	1r	.	1r	.
.	.	.	.	.	16f|>/JJ	.	.	.	.	.	.	.	.	.
!	!	!	!	!	!LO:TUP:a:	!	!	!	!	!	!	!	!	!
.	.	.	.	.	24aa\LL	.	.	.	.	.	.	.	.	.
.	.	.	.	.	24ccc\	.	.	.	.	.	.	.	.	.
.	.	.	.	.	24aa\JJ	.	.	.	.	.	.	.	.	.
!	!	!	!	!	!LO:TX:t=P:problem=mixed beam	!	!	!	!	!	!	!	!	!
4G\	.	.	.	.	16bb|>\LL	.	.	.	.	.	.	.	.	.
.	.	.	.	.	16g|>/JJ	.	.	.	.	.	.	.	.	.
!	!	!	!	!	!LO:TUP:a:	!	!	!	!	!	!	!	!	!
.	.	.	.	.	24bb\LL	.	.	.	.	.	.	.	.	.
.	.	.	.	.	24ddd\	.	.	.	.	.	.	.	.	.
.	.	.	.	.	24bb\JJ	.	.	.	.	.	.	.	.	.
!	!	!	!	!	!LO:TX:t=P:problem=mixed beam	!	!	!	!	!	!	!	!	!
4A\	.	.	.	.	16ccc|>\LL	.	.	.	.	.	.	.	.	.
.	.	.	.	.	16a|>/JJ	.	.	.	.	.	.	.	.	.
!	!	!	!	!	!LO:TUP:a:	!	!	!	!	!	!	!	!	!
.	.	.	.	.	24ccc\LL	.	.	.	.	.	.	.	.	.
.	.	.	.	.	24eee\	.	.	.	.	.	.	.	.	.
.	.	.	.	.	24ccc\JJ	.	.	.	.	.	.	.	.	.
!	!	!	!	!	!LO:TX:t=P:problem=mixed beam	!	!	!	!	!	!	!	!	!
4B\	.	.	.	.	16ddd|>\LL	.	.	.	.	.	.	.	.	.
.	.	.	.	.	16b|>/JJ	.	.	.	.	.	.	.	.	.
!	!	!	!	!	!LO:TUP:a:	!	!	!	!	!	!	!	!	!
.	.	.	.	.	24ddd\LL	.	.	.	.	.	.	.	.	.
.	.	.	.	.	24fff\	.	.	.	.	.	.	.	.	.
.	.	.	.	.	24ddd\JJ	.	.	.	.	.	.	.	.	.
=10	=10	=10	=10	=10	=10	=10	=10	=10	=10	=10	=10	=10	=10	=10
4c\	.	.	1r	.	16eee\LL	.	1r	.	1r	.	1r	.	1r	.
.	.	.	.	.	16fff\	.	.	.	.	.	.	.	.	.
.	.	.	.	.	16ggg\	.	.	.	.	.	.	.	.	.
.	.	.	.	.	16fff\JJ	.	.	.	.	.	.	.	.	.
4r	.	.	.	.	16eee\LL	.	.	.	.	.	.	.	.	.
.	.	.	.	.	16ddd\	.	.	.	.	.	.	.	.	.
.	.	.	.	.	16ccc\	.	.	.	.	.	.	.	.	.
.	.	.	.	.	16bb\JJ	.	.	.	.	.	.	.	.	.
4E\	.	.	.	.	16ccc\LL	.	.	.	.	.	.	.	.	.
.	.	.	.	.	16ddd\	.	.	.	.	.	.	.	.	.
.	.	.	.	.	16eee\	.	.	.	.	.	.	.	.	.
.	.	.	.	.	16ddd\JJ	.	.	.	.	.	.	.	.	.
4r	.	.	.	.	16ccc\LL	.	.	.	.	.	.	.	.	.
.	.	.	.	.	16bb\	.	.	.	.	.	.	.	.	.
.	.	.	.	.	16aa\	.	.	.	.	.	.	.	.	.
.	.	.	.	.	16gg\JJ	.	.	.	.	.	.	.	.	.
=11	=11	=11	=11	=11	=11	=11	=11	=11	=11	=11	=11	=11	=11	=11
!	!	!	!	!	!LO:LB:g=original	!	!	!	!	!	!	!	!	!
4F\	.	.	1r	.	8aa'\L	.	1r	.	1r	.	1r	.	1r	.
.	.	.	.	.	16bb'\L	.	.	.	.	.	.	.	.	.
.	.	.	.	.	16ccc'\JJ	.	.	.	.	.	.	.	.	.
4r	.	.	.	.	16ddd'\LL	.	.	.	.	.	.	.	.	.
.	.	.	.	.	16eee'\	.	.	.	.	.	.	.	.	.
.	.	.	.	.	16fff'\	.	.	.	.	.	.	.	.	.
.	.	.	.	.	16ggg'\JJ	.	.	.	.	.	.	.	.	.
!	!	!	!	!	!LO:TX:t=P:problem=mixed beam	!	!	!	!	!	!	!	!	!
2r	.	.	.	.	8aaa|>\L	.	.	.	.	.	.	.	.	.
.	.	.	.	.	8bbb|>\	.	.	.	.	.	.	.	.	.
.	.	.	.	.	8cccc|>\	.	.	.	.	.	.	.	.	.
.	.	.	.	.	8f#X|>/J	.	.	.	.	.	.	.	.	.
=12	=12	=12	=12	=12	=12	=12	=12	=12	=12	=12	=12	=12	=12	=12
!	!	!	!	!	!LO:TX:t=P:problem=mixed beam	!	!	!	!	!	!	!	!	!
2r	.	.	1r	.	8g|>/L	.	1r	.	1r	.	1r	.	1r	.
.	.	.	.	.	8gg|>\J	.	.	.	.	.	.	.	.	.
.	.	.	.	.	16ff|>\LL	.	.	.	.	.	.	.	.	.
.	.	.	.	.	16ee|>\	.	.	.	.	.	.	.	.	.
.	.	.	.	.	16dd|>\	.	.	.	.	.	.	.	.	.
.	.	.	.	.	16cc|>\JJ	.	.	.	.	.	.	.	.	.
!LO:TX:t=P:problem=mixed beam	!	!	!	!	!	!	!	!	!	!	!	!	!	!
!	!	!	!	!	!LO:TX:t=P:tr = t:problem	!	!	!	!	!	!	!	!	!
8G\L	.	.	.	.	2ddT\	.	.	.	.	.	.	.	.	.
8G\	.	.	.	.	.	.	.	.	.	.	.	.	.	.
8GG/	.	.	.	.	.	.	.	.	.	.	.	.	.	.
8GG/J	.	.	.	.	.	.	.	.	.	.	.	.	.	.
=13	=13	=13	=13	=13	=13	=13	=13	=13	=13	=13	=13	=13	=13	=13
!	!	!	!LO:TX:a:i:t=Tutti	!	!	!	!	!	!	!	!	!	!	!
!	!	!	!	!	!	!	!	!	!	!	!	!	!LO:TX:t=½	!
!LO:LB:g=original	!	!	!	!LO:DY:t=for.	!	!	!	!	!	!	!	!	!	!
8C/L	.	.	2r	f	8cc\L	.	2r	.	2r	.	2r	.	2r	.
8GG/J	.	.	.	.	8g\J	.	.	.	.	.	.	.	.	.
!	!	!	!	!	!LO:TX:a:i:t=Tutti	!	!	!	!	!	!	!	!	!
4C/	.	.	.	.	4c/	.	.	.	.	.	.	.	.	.
*tremolo	*	*	*	*	*	*	*	*	*	*	*	*	*	*
!LO:TX:a:i:t=Tutti	!	!	!	!	!	!	!	!	!	!	!	!	!	!
8C/L	.	.	16cc\LL	.	16ee\LL	.	8C/	Ky-	8G/	Kÿ-	8e\	Ky-	8cc\	Ky-
.	.	.	16cc\	.	16ee\	.	.	.	.	.	.	.	.	.
8C/	.	.	16cc\	.	16ee\	.	8C/	-ri-	8G/	-ri-	8e\	-ri-	8cc\	-ri-
.	.	.	16ee\JJ	.	16ccc\JJ	.	.	.	.	.	.	.	.	.
8C/	.	.	16cc\LL	.	16ee\LL	.	8C/	-e	8G/	-e	8e\	-e	8cc\	-ae
.	.	.	16cc\	.	16ee\	.	.	.	.	.	.	.	.	.
8C/J	.	.	16cc\	.	16ee\	.	8C/	e-	8G/	e-	8e\	e-	8cc\	e-
.	.	.	16ee\JJ	.	16ccc\JJ	.	.	.	.	.	.	.	.	.
=14	=14	=14	=14	=14	=14	=14	=14	=14	=14	=14	=14	=14	=14	=14
!	!	!	!	!	!LO:LB:g=original	!	!	!	!	!	!	!	!	!
8BB/L	6 5	.	16dd\LL	.	16ff\LL	.	8BB/	-lei-	4G/	-lei-	4f\	-lei-	4dd\	-lei-
.	.	.	16dd\	.	16ff\	.	.	.	.	.	.	.	.	.
8BB/	.	.	16dd\	.	16ff\	.	8BB/	-son	.	.	.	.	.	.
.	.	.	16ff\JJ	.	16ddd\JJ	.	.	.	.	.	.	.	.	.
8BB/	.	.	16dd\LL	.	16ff\LL	.	8BB/	Chris-	4G/	-son	4f\	-son	4dd\	-son
.	.	.	16dd\	.	16ff\	.	.	.	.	.	.	.	.	.
8BB/J	.	.	16dd\	.	16ff\	.	16BB/	-te	.	.	.	.	.	.
.	.	.	16ff\JJ	.	16ddd\JJ	.	16BB/	e-	.	.	.	.	.	.
8C/L	.	.	16cc\LL	.	16ee\LL	.	4C/	-lei-	8G/	Chris-	4e\	Chris-	8cc\	Chris-
.	.	.	16cc\	.	16ee\	.	.	.	.	.	.	.	.	.
8C/	.	.	16cc\	.	16ee\	.	.	.	16G/	-te	.	.	16cc\	-te
.	.	.	16ee\JJ	.	16ccc\JJ	.	.	.	16G/	e-	.	.	16cc\	e-
!	!	!	!	!	!	!	!	!	!	!	!	!	!LO:LB:g=original	!
8C/	.	.	16cc\LL	.	16ee\LL	.	4C/	-son	8G/	-lei-	8e\	-te	8cc\	-lei-
.	.	.	16cc\	.	16ee\	.	.	.	.	.	.	.	.	.
8C/J	.	.	16cc\	.	16ee\	.	.	.	8G/	-son	8e\	e-	8cc\	-son
.	.	.	16ee\JJ	.	16ccc\JJ	.	.	.	.	.	.	.	.	.
=15	=15	=15	=15	=15	=15	=15	=15	=15	=15	=15	=15	=15	=15	=15
!	!	!	!LO:LB:g=original	!	!	!	!	!	!	!	!	!	!	!
8G\L	.	.	16b\LL	.	16dd\LL	.	8G\	fi-	8.G/	Kÿ-	4d\	-lei-	8b\	Chris-
.	.	.	16b\	.	16dd\	.	.	.	.	.	.	.	.	.
8G\	.	.	16b\	.	16dd\	.	16G\	-li	.	.	.	.	8b\	-te
.	.	.	16dd\JJ	.	16bb\JJ	.	16G\	Re-	16G/	-ri-	.	.	.	.
8G\	.	.	16b\LL	.	16dd\LL	.	8G\	-dem-	8G/	-e	4d\	-son	16b\	au-
.	.	.	16b\	.	16dd\	.	.	.	.	.	.	.	16b\	-di
8G\J	.	.	16b\	.	16dd\	.	8G\	-ptor	8G/	e-	.	.	8b\	nos
.	.	.	16dd\JJ	.	16bb\JJ	.	.	.	.	.	.	.	.	.
*Xtremolo	*	*	*	*	*	*	*	*	*	*	*	*	*	*
!	!	!	!	!	!	!	!LO:LB:g=original	!	!	!	!	!	!	!
8c\L	.	.	16cc\LL	.	16ee\LL	.	8c\	Mun-	8G/	-lei-	8e\	Pa-	8cc\	Chris-
.	.	.	16cc\	.	16ee\	.	.	.	.	.	.	.	.	.
8c\	.	.	16cc\	.	16ee\	.	8c\	-di	8G/	-son	16e\	-ter	16cc\	-te
.	.	.	16ee\JJ	.	16ccc\JJ	.	.	.	.	.	16e\	de	16cc\	ex-
8B\	.	.	16cc\LL	.	16ee\LL	.	8B\	de-	8c\	San-	16g\	Cae-	16ee\	-au-
.	.	.	16cc\	.	16ee\	.	.	.	.	.	16g\	-lis	16ee\	-di
8B\J	.	.	16cc\	.	16ee\	.	8B\	-us	8c\	-cta	16g\	de-	8ee\	nos
.	.	.	16ee\JJ	.	16ccc\JJ	.	.	.	.	.	16g\	-us	.	.
=16	=16	=16	=16	=16	=16	=16	=16	=16	=16	=16	=16	=16	=16	=16
!	!	!	!	!	!	!	!	!	!	!	!LO:LB:g=original	!	!	!
!	!	!	!	!	!	!	!	!	!LO:LB:g=original	!	!	!	!	!
8A\L	.	.	16cc\LL	.	16ee\LL	.	4A\	mi-	8c\	Vir-	16a\	mi-	8ee\	San-
.	.	.	16cc\	.	16ee\	.	.	.	.	.	16a\	-se-	.	.
8A\	.	.	16cc\	.	16ee\	.	.	.	8c\	-go	16a\	-re-	8ee\	-cta
.	.	.	16ee\JJ	.	16ccc\JJ	.	.	.	.	.	16a\	-re	.	.
8E\	6	.	16cc\LL	.	16ee\LL	.	4E\	-se-	8c\	Vir-	8g\	no-	16ee\	Tri-
.	.	.	16cc\	.	16ee\	.	.	.	.	.	.	.	16ee\	-ni-
8E\J	.	.	16cc\	.	16ee\	.	.	.	8c\	-gi-	8g\	-bis	8ee\	-tas
.	.	.	16ee\JJ	.	16ccc\JJ	.	.	.	.	.	.	.	.	.
!	!	!	!	!	!	!	!	!	!	!	!	!	!LO:LB:g=original	!
8F\L	7_	.	16cc\LL	.	16ee\LL	.	4F\	-re-	8c\	-num	8a\	San-	8ee\	u-
.	.	.	16cc\	.	16ee\	.	.	.	.	.	.	.	.	.
8F\	x	.	16cc\	.	16ee\	.	.	.	8c\	o-	16a\	-cta	8ee\	-nus
.	.	.	16ee\JJ	.	16ccc\JJ	.	.	.	.	.	16a\	Ma-	.	.
8F#X\	x	.	16cc\LL	.	16ee\LL	.	4F#X\	.	8A\	-ra	8cc\	-ri-	8ee\	De-
.	.	.	16cc\	.	16ee\	.	.	.	.	.	.	.	.	.
8F#\J	x	.	16cc\	.	16ee\	.	.	.	8A\	pro	8cc\	-a	8ee\	-us
.	.	.	16ee\JJ	.	16ccc\JJ	.	.	.	.	.	.	.	.	.
=17	=17	=17	=17	=17	=17	=17	=17	=17	=17	=17	=17	=17	=17	=17
!	!	!	!	!	!LO:LB:g=original	!	!	!	!	!	!	!	!	!
4G\	.	.	16b\LL	.	16dd\LL	.	4G\	.	8B\	no-	8b\	San-	8dd\	mi-
.	.	.	16b\	.	16dd\	.	.	.	.	.	.	.	.	.
.	.	.	16b\	.	16dd\	.	.	.	8B\	-bis	8g\	-cta	8dd\	-se-
.	.	.	16dd\JJ	.	16bb\JJ	.	.	.	.	.	.	.	.	.
4Fn\	4 2	.	16b\LL	.	16dd\LL	.	4Fn\	.	16B\	Ma-	8g\	de-	8dd\	-re-
.	.	.	16b\	.	16dd\	.	.	.	16B\	-ter	.	.	.	.
.	.	.	16b\	.	16dd\	.	.	.	16B\	Chris-	8g\	-i	8dd\	-re
.	.	.	16dd\JJ	.	16bb\JJ	.	.	.	16B\	-ti	.	.	.	.
!	!	!	!LO:LB:g=original	!	!	!	!	!	!	!	!	!	!	!
8E\L	.	.	16ee\LL	.	16ccc\LL	.	8E\L	.	8c\	Ma-	8g\	ge-	8ee\L	no-
.	.	.	16ee\	.	16ccc\	.	.	.	.	.	.	.	.	.
8D\	.	.	16ff\	.	16bb\	.	8D\	.	16d\	-ter	8b\	-ne-	8ff\J	.
.	.	.	16ff\JJ	.	16bb\JJ	.	.	.	16d\	di-	.	.	.	.
8E\	.	.	16ee\LL	.	16ccc\LL	.	8E\	-re	8G/	-vi-	8cc\	-trix	8ee\L	.
.	.	.	16ee\	.	16ccc\	.	.	.	.	.	.	.	.	.
8C\J	.	.	16cc\	.	16ee\	.	8C\J	.	8G/	-nae	8e\	o-	8cc\J	.
.	.	.	16cc\JJ	.	16ee\JJ	.	.	.	.	.	.	.	.	.
=18	=18	=18	=18	=18	=18	=18	=18	=18	=18	=18	=18	=18	=18	=18
!LO:TX:t=P:problem=mixed beam	!	!	!	!	!	!	!	!	!	!	!	!	!	!
!LO:TX:t=P:problem=tercja w cyfrowaniu zapisana nieprecyzyjnie	!	!	!	!	!	!	!	!	!	!	!	!	!	!
8G\L	4:3	.	16dd\LL	.	16dd\LL	.	4G\	no-	4.G/	gra-	8d\	-ra	4cc\	.
.	.	.	16dd\	.	16dd\	.	.	.	.	.	.	.	.	.
8G\	.	.	16dd\	.	16ccc\	.	.	.	.	.	8d\	pro-	.	.
.	.	.	16dd\JJ	.	16ccc\JJ	.	.	.	.	.	.	.	.	.
8GG/	.	.	16dd\LL	.	16dd\LL	.	4GG/	.	.	.	4d\	-no-	4b\	.
.	.	.	16dd\	.	16dd\	.	.	.	.	.	.	.	.	.
8GG/J	.	.	16dd\	.	16bb\	.	.	.	8G/	-ti-	.	.	.	.
.	.	.	16dd\JJ	.	16bb\JJ	.	.	.	.	.	.	.	.	.
!	!	!	!	!	!	!	!	!	!	!	!LO:N:vis=8	!	!	!
4C/	.	.	4ee\	.	4ccc\	.	4C/	-bis	4G/	-ae	4e\	-bis	4cc\	-bis
!	!	!	!LO:TX:t=P:problem=belki w środku dwudźwięków do końca t. 20	!	!	!	!	!	!	!	!	!	!	!
8r	.	.	16ggLL 16g\	.	16gg\LL	.	8r	.	8r	.	8r	.	8r	.
.	.	.	16gg 16g\	.	16ee\	.	.	.	.	.	.	.	.	.
*	*	*	*	*	*	*	*	*	*	*	*	*	*	*ij
8C/	.	.	16gg 16g\	.	16gg\	.	8C/	Spi-	8e\	o-	8g\	o-	8gg\	no-
.	.	.	16ggJJ 16g\	.	16ee\JJ	.	.	.	.	.	.	.	.	.
=19	=19	=19	=19	=19	=19	=19	=19	=19	=19	=19	=19	=19	=19	=19
*	*	*	*tremolo	*	*	*	*	*	*	*	*	*	*	*
!LO:TX:t=P:problem=mixed beam	!	!	!	!	!	!	!	!	!	!	!	!	!	!
8D/L	3_	.	16gg 16g\LL	.	8ff\L	.	8D/	-ri-	4d\	-ra	4g\	-ra	4ff\	-bis
.	.	.	16gg 16g\	.	.	.	.	.	.	.	.	.	.	.
8BB/	x	.	16gg 16g\	.	8dd\J	.	8BB/	-tus	.	.	.	.	.	.
.	.	.	16gg 16g\	.	.	.	.	.	.	.	.	.	.	.
8GG/	x	.	16gg 16g\	.	16bb\LL	.	8GG/	San-	8r	.	8r	.	8r	.
.	.	.	16gg 16g\	.	16gg\	.	.	.	.	.	.	.	.	.
8F\J	x	.	16gg 16g\	.	16ddd\	.	8F\	-cte	8B\	pro	8g\	o-	8dd\	no-
.	.	.	16gg 16g\JJ	.	16bb\JJ	.	.	.	.	.	.	.	.	.
!	!	!	!	!	!	!	!	!	!LO:LB:g=original	!	!LO:LB:g=original	!	!	!
4E\	6	.	16gg 16g\LL	.	8ccc\L	.	8E\	de-	8c\	no-	4g\	-ra	4ee\	-bis
*	*	*	*	*	*	*	*	*	*	*	*	*	*	*Xij
.	.	.	16gg 16g\	.	.	.	.	.	.	.	.	.	.	.
.	.	.	16gg 16g\	.	8gg\J	.	8E\	-us	8c\	-bis	.	.	.	.
.	.	.	16gg 16g\	.	.	.	.	.	.	.	.	.	.	.
8r	.	.	16gg 16g\	.	16gg\LL	.	8r	.	8r	.	8r	.	8r	.
.	.	.	16gg 16g\	.	16ee\	.	.	.	.	.	.	.	.	.
*	*	*	*	*	*	*	*	*	*	*	*	*ij	*	*
8c\	.	.	16gg 16g\	.	16gg\	.	8c\	mi-	8e\	o-	8g\	o-	8gg\	no-
.	.	.	16gg 16g\JJ	.	16ee\JJ	.	.	.	.	.	.	.	.	.
=20	=20	=20	=20	=20	=20	=20	=20	=20	=20	=20	=20	=20	=20	=20
!	!	!	!	!	!	!	!	!	!	!	!	!	!LO:LB:g=original	!
!	!	!	!	!	!	!	!LO:LB:g=original	!	!	!	!	!	!	!
!LO:LB:g=original	!	!	!	!	!LO:LB:g=original	!	!	!	!	!	!	!	!	!
8d\L	.	.	16gg 16g\LL	.	8ff\L	.	8d\	.	4d\	-ra	4g\	-ra	4ff\	-bis
*	*	*	*	*	*	*	*	*	*	*	*	*Xij	*	*
.	.	.	16gg 16g\	.	.	.	.	.	.	.	.	.	.	.
8B\	.	.	16gg 16g\	.	8dd\J	.	8B\	-se-	.	.	.	.	.	.
.	.	.	16gg 16g\	.	.	.	.	.	.	.	.	.	.	.
8G\	3_	.	16gg 16g\	.	16bb\LL	.	8G\	-re-	8r	.	8r	.	8r	.
.	.	.	16gg 16g\	.	16gg\	.	.	.	.	.	.	.	.	.
*	*	*	*	*	*	*	*	*	*	*ij	*	*	*	*ij
8F\J	x	.	16gg 16g\	.	16ddd\	.	8F\	-re	8B\	o-	8g\	pro-	8dd\	no-
.	.	.	16gg 16g\JJ	.	16bb\JJ	.	.	.	.	.	.	.	.	.
4E\	.	.	16gg 16g\LL	.	8ccc\L	.	8E\	no-	8c\	-ra	8g\	-no-	8ee\	-bis
*	*	*	*	*	*	*	*	*	*	*Xij	*	*	*	*Xij
.	.	.	16gg 16g\	.	.	.	.	.	.	.	.	.	.	.
.	.	.	16gg 16g\	.	8gg\J	.	8E\	-bis	8e\	pro	8cc\	-bis	8gg\	Ma-
.	.	.	16gg 16g\	.	.	.	.	.	.	.	.	.	.	.
8C\L	.	.	16gg 16g\	.	16gg\LL	.	8C/	San-	8e\	no-	8cc\	Ma-	8gg\	-ter
.	.	.	16gg 16g\	.	16ee\	.	.	.	.	.	.	.	.	.
8E\J	.	.	16gg 16g\	.	16ccc\	.	16E/	-cta	8e\	-bis	16cc\	-ter	8gg\	pu-
.	.	.	16gg 16g\JJ	.	16gg\JJ	.	16E/	Ma-	.	.	16cc\	in-	.	.
=21	=21	=21	=21	=21	=21	=21	=21	=21	=21	=21	=21	=21	=21	=21
*	*	*	*Xtremolo	*	*	*	*	*	*	*	*	*	*	*
!	!	!	!	!	!LO:TX:t=P:problem=mixed beam	!	!	!	!	!	!	!	!	!
!	!	!	!	!	!	!	!	!	!	!	!LO:LB:g=original	!	!	!
!	!	!	!	!	!	!	!	!	!	!	!LO:TX:t=P:problem=dwa takty skreślone	!	!	!
8F\L	.	.	16cc\LL	.	8aa\L	.	8F\	-ri-	8r	.	8cc\	-vi-	8a\	-riſ-
.	.	.	16cc\	.	.	.	.	.	.	.	.	.	.	.
8A\J	.	.	16cc\	.	8f/J	.	8A\	-a	8f\	o-	8cc\	-o-	8a\	-si-
.	.	.	16cc\JJ	.	.	.	.	.	.	.	.	.	.	.
*	*	*	*tremolo	*	*	*	*	*	*	*	*	*	*	*
8BB/L	.	.	16ff\LL	.	16ff\LL	.	8BB/	o-	4d\	-ra	8b\	-la-	4ff\	-ma
.	.	.	16ff\	.	16dd\	.	.	.	.	.	.	.	.	.
8D/J	.	.	16ff\	.	16bb\	.	16D\	-ra	.	.	8b\	-ta	.	.
.	.	.	16ff\JJ	.	16ff\JJ	.	16D\	pro	.	.	.	.	.	.
!	!	!	!	!	!LO:TX:t=P:problem=mixed beam	!	!	!	!	!	!	!	!	!
8E\L	.	.	16b\LL	.	8gg\L	.	8E\	no-	8r	.	8b\	Ma-	4g\	Ma-
.	.	.	16b\	.	.	.	.	.	.	.	.	.	.	.
*	*	*	*	*	*	*	*	*	*	*ij	*	*	*	*
8G\J	.	.	16b\	.	8e/J	.	8G\	-bis	8e\	o-	16b\	-ter	.	.
.	.	.	16b\JJ	.	.	.	.	.	.	.	16b\	in-	.	.
8AA/L	.	.	16ee\LL	.	16ee\LL	.	8AA/	Ma-	4c\	-ra	8a\	-te-	8ee\	-ter
.	.	.	16ee\	.	16cc\	.	.	.	.	.	.	.	.	.
8C/J	.	.	16ee\	.	16aa\	.	8C/	-ter	.	.	8a\	-me-	8ee\	Caſ-
.	.	.	16ee\JJ	.	16ee\JJ	.	.	.	.	.	.	.	.	.
=22	=22	=22	=22	=22	=22	=22	=22	=22	=22	=22	=22	=22	=22	=22
!	!	!	!	!	!LO:TX:t=P:problem=mixed beam	!	!	!	!	!	!	!	!	!
!	!	!	!	!	!	!	!LO:LB:g=original	!	!	!	!	!	!	!
!	!	!	!LO:LB:g=original	!	!	!	!	!	!	!	!	!	!	!
8D\L	.	.	16a\LL	.	8ff\L	.	8D\	cre-	8r	.	8a\	-ra-	8f/	-tiſ-
.	.	.	16a\	.	.	.	.	.	.	.	.	.	.	.
8F\J	.	.	16a\	.	8d/J	.	8F\	-a-	8d\	o-	16a\	-ta	8f/	-si-
.	.	.	16a\JJ	.	.	.	.	.	.	.	16a\	o-	.	.
8GG/L	.	.	16dd\LL	.	16dd\LL	.	8GG/	-to-	4B\	-ra	8g\	-ra	8dd\	-ma
.	.	.	16dd\	.	16b\	.	.	.	.	.	.	.	.	.
8BB/J	.	.	16dd\	.	16gg\	.	8BB/	-ris	.	.	8g\	pro-	8dd\	o-
.	.	.	16dd\JJ	.	16dd\JJ	.	.	.	.	.	.	.	.	.
!	!	!	!	!	!LO:TX:t=P:problem=mixed beam	!	!	!	!	!	!	!	!	!
8C\L	.	.	16g/LL	.	8ee\L	.	8C\	Ma-	8r	.	8g\	-no-	8e/	-ra
.	.	.	16g/	.	.	.	.	.	.	.	.	.	.	.
8E\	.	.	16g/	.	8c/J	.	8E\	-ter	8c\	o-	8g\	-bis	8e/	pro-
.	.	.	16g/JJ	.	.	.	.	.	.	.	.	.	.	.
8F\	.	.	16cc\LL	.	16cc\LL	.	8F\	Sal-	4A\	-ra	8f\	Vir-	8cc\	-no-
.	.	.	16cc\	.	16a\	.	.	.	.	.	.	.	.	.
8A\J	.	.	16cc\	.	16ff\	.	8A\	-va-	.	.	8f\	-go	8cc\	-bis
.	.	.	16cc\JJ	.	16cc\JJ	.	.	.	.	.	.	.	.	.
=23	=23	=23	=23	=23	=23	=23	=23	=23	=23	=23	=23	=23	=23	=23
!	!	!	!	!	!LO:TX:t=P:problem=mixed beam	!	!	!	!	!	!	!	!	!
!	!	!	!	!	!	!	!	!	!	!	!	!	!LO:LB:g=original	!
!	!	!	!	!	!LO:LB:g=original	!	!	!	!	!	!	!	!	!
8B\L	.	.	16f/LL	.	8dd\L	.	8B\	-to-	8r	.	8f\	po-	8d/	Vir-
.	.	.	16f/	.	.	.	.	.	.	.	.	.	.	.
8d\	.	.	16f/	.	8B/J	.	8d\	-ris	8B\	o-	8f\	-tens	8d/	-go
.	.	.	16f/JJ	.	.	.	.	.	.	.	.	.	.	.
8E\	.	.	16b\LL	.	16b\LL	.	8E\L	o-	4G#X/	-ra	8e\	Vir-	8b\	pru-
*	*	*	*	*	*	*	*	*	*	*Xij	*	*	*	*
.	.	.	16b\	.	16g#X\	.	.	.	.	.	.	.	.	.
8G#X\J	.	.	16b\	.	16ee\	.	8G#X\J	.	.	.	8e\	-go	8b\	-den-
.	.	.	16b\JJ	.	16b\JJ	.	.	.	.	.	.	.	.	.
*	*	*	*Xtremolo	*	*	*	*	*	*	*	*	*	*	*
!LO:TX:t=P:problem=mixed beam	!	!	!	!	!	!	!	!	!	!	!	!	!	!
8A\L	.	.	16eLL 16c/	.	16cc\LL	.	8A\	-ra	8r	.	8e\	Cle-	8cc\	-tiſ-
.	.	.	16e 16c/	.	16a\JJ	.	.	.	.	.	.	.	.	.
8AA/	.	.	16e 16c/	.	8.aa\L	.	8AA/	pro	8A\	pro	8e\	-mens	16cc\	-si-
.	.	.	16eJJ 16c/	.	.	.	.	.	.	.	.	.	16cc\	-ma
*	*	*	*tremolo	*	*	*	*	*	*	*	*	*	*	*
8C/	.	.	16e 16c/LL	.	.	.	8C/	no-	8c\	no-	8a\	Vir-	8ee\	Vir-
.	.	.	16e 16c/	.	16ee\L	.	.	.	.	.	.	.	.	.
8AA/J	.	.	16e 16c/	.	16cc\	.	8AA/	-bis	16c\	-bis	16a\	-go	8ee\	-go
.	.	.	16e 16c/JJ	.	16a\JJ	.	.	.	16c\	Ma-	16a\	fi-	.	.
=24	=24	=24	=24	=24	=24	=24	=24	=24	=24	=24	=24	=24	=24	=24
!	!	!	!	!	!	!	!	!	!	!	!LO:LB:g=original	!	!	!
!	!	!	!	!	!	!	!	!	!LO:LB:g=original	!	!	!	!	!
8r	.	.	8B/L	.	16g#X/LL	.	8r	.	8B\	-ter	8g#X\L	-de-	8ee\	Ve-
.	.	.	.	.	16e/JJ	.	.	.	.	.	.	.	.	.
8E\L	.	.	8e/	.	8.ee\L	.	16E\	Vas	8G#X/	a-	8e\	.	8ee\	-ne-
.	.	.	.	.	.	.	16E\	Spi-	.	.	.	.	.	.
8F#X\	.	.	8f#X/	.	.	.	8F#X\	-ri-	8A\	-ma-	8f#X\	.	8dd\	-ran-
.	.	.	.	.	16dd\L	.	.	.	.	.	.	.	.	.
8G#X\J	.	.	8g#X/J	.	16cc\	.	8G#X\	-tu-	8B\	-bi-	8g#\J	.	8dd\	-da
.	.	.	.	.	16b\JJ	.	.	.	.	.	.	.	.	.
!	!	!	!	!	!	!	!LO:LB:g=original	!	!	!	!	!	!	!
8A\L	.	.	16e 16c/LL	.	16cc\LL	.	4A\	-a-	8c\	-lis	4a\	-lis	8cc\	Vir-
.	.	.	16e 16c/	.	16a\JJ	.	.	.	.	.	.	.	.	.
8A\	.	.	16e 16c/	.	8.aa\L	.	.	.	16e\	Ma-	.	.	8cc\	-go
.	.	.	16e 16c/JJ	.	.	.	.	.	16e\	-ter	.	.	.	.
8c\	.	.	16e 16c/LL	.	.	.	8c\L	-le	8A\	ad-	4cc\	o-	8ee\	prae-
.	.	.	16e 16c/	.	16ee\L	.	.	.	.	.	.	.	.	.
8A\J	.	.	16e 16c/	.	16cc\	.	8A\J	.	8A\	-mi-	.	.	8ee\	-di-
.	.	.	16e 16c/JJ	.	16a\JJ	.	.	.	.	.	.	.	.	.
*	*	*	*Xtremolo	*	*	*	*	*	*	*	*	*	*	*
=25	=25	=25	=25	=25	=25	=25	=25	=25	=25	=25	=25	=25	=25	=25
8r	.	.	8B/L	.	16g#X/LL	.	8r	.	4G#X\	-ra-	8b\	-ra	4ee\	-can-
.	.	.	.	.	16e/JJ	.	.	.	.	.	.	.	.	.
8E\L	.	.	8e/	.	8.ee\L	.	8E\	Vas	.	.	8e\	pro	.	.
8F#X\	.	.	8f#X/	.	.	.	8F#X\	ho-	8A\L	-bi-	8f#X\L	no-	4dd\	.
.	.	.	.	.	16dd\L	.	.	.	.	.	.	.	.	.
8G#X\J	.	.	8g#X/J	.	16cc\	.	8G#X\	-no-	8B\J	.	8g#X\J	.	.	.
.	.	.	.	.	16b\JJ	.	.	.	.	.	.	.	.	.
!LO:LB:g=original	!	!	!	!	!	!	!	!	!	!	!	!	!	!
8A\L	.	.	8a/L	.	16cc\LL	.	8A\	-ra-	8E/	-lis	8a\	-bis	8cc\	-da
.	.	.	.	.	16ee\	.	.	.	.	.	.	.	.	.
8B\	.	.	8b/	.	16dd\	.	8B\	-bi-	8r	.	8r	.	8r	.
.	.	.	.	.	16ff\JJ	.	.	.	.	.	.	.	.	.
*	*	*	*	*	*	*	*	*	*	*	*	*ij	*	*
8c\	.	.	8cc/	.	16ee\LL	.	8c\	-le	4c\	o-	4a\	o-	4ee\	o-
.	.	.	.	.	16aa\	.	.	.	.	.	.	.	.	.
8A\J	.	.	8a/J	.	16ee\	.	8A\	o-	.	.	.	.	.	.
.	.	.	.	.	16cc\JJ	.	.	.	.	.	.	.	.	.
=26	=26	=26	=26	=26	=26	=26	=26	=26	=26	=26	=26	=26	=26	=26
*	*	*	*tremolo	*	*	*	*	*	*	*	*	*	*	*
!	!	!	!	!	!	!	!	!	!	!	!	!	!LO:LB:g=original	!
!	!	!	!	!	!LO:LB:g=original	!	!	!	!	!	!	!	!	!
8G#X\L	.	.	8e/L	.	16b\LL	.	8G#X\L	.	8B\	-ra	8g#X\	-ra	8ee\	-ra
.	.	.	.	.	16ee\	.	.	.	.	.	.	.	.	.
8A\	.	.	8e/	.	16cc\	.	8A\	.	8c\	pro	8a\	pro	8ee\	pro
.	.	.	.	.	16ee\JJ	.	.	.	.	.	.	.	.	.
8B\	.	.	8e/	.	16dd\LL	.	8B\	.	8d\L	no-	8b\L	no-	4ee\	no-
.	.	.	.	.	16ee\	.	.	.	.	.	.	.	.	.
8G#\J	.	.	8e/J	.	16b\	.	8G#\J	.	8B\J	.	8g#\J	.	.	.
.	.	.	.	.	16ee\JJ	.	.	.	.	.	.	.	.	.
*	*	*	*Xtremolo	*	*	*	*	*	*	*	*	*	*	*
8A\L	.	.	16a\LL	.	16cc\LL	.	8A\L	.	8c\	-bis	8a\	-bis	8ee\	-bis
.	.	.	16cc\	.	16ee\	.	.	.	.	.	.	.	.	.
8B\	.	.	16b\	.	16dd\	.	8B\	.	8r	.	8r	.	8r	.
.	.	.	16dd\JJ	.	16ff\JJ	.	.	.	.	.	.	.	.	.
*	*	*	*	*	*	*	*	*	*	*ij	*	*	*	*
!	!	!	!LO:TX:t=P:problem=mixed beam	!	!	!	!	!	!	!	!	!	!	!
8c\	.	.	16cc\LL	.	16ee\LL	.	8c\	.	4c\	o-	4a\	o-	4ee\	o-
.	.	.	16ee\J	.	16aa\	.	.	.	.	.	.	.	.	.
8A\J	.	.	8e/J	.	16ee\	.	8A\J	.	.	.	.	.	.	.
.	.	.	.	.	16cc\JJ	.	.	.	.	.	.	.	.	.
=27	=27	=27	=27	=27	=27	=27	=27	=27	=27	=27	=27	=27	=27	=27
*	*	*	*tremolo	*	*	*	*	*	*	*	*	*	*	*
8G#X\L	.	.	8e/L	.	16b\LL	.	8G#X\L	.	8B\	-ra	8g#X\L	-ra	8ee\	-ra
.	.	.	.	.	16ee\	.	.	.	.	.	.	.	.	.
8A\	.	.	8e/	.	16cc\	.	8A\J	.	8c\	pro	8a\J	pro	8ee\	pro
.	.	.	.	.	16ee\JJ	.	.	.	.	.	.	.	.	.
8B\	.	.	8e/	.	16dd\LL	.	8B\	-ra	8d\L	no-	8b\L	no-	4ee\	no-
.	.	.	.	.	16ee\	.	.	.	.	.	.	.	.	.
8G#\J	.	.	8e/J	.	16b\	.	8G#\	pro	8B\J	.	8g#\J	.	.	.
.	.	.	.	.	16dd\JJ	.	.	.	.	.	.	.	.	.
*	*	*	*Xtremolo	*	*	*	*	*	*	*	*	*	*	*
!	!	!	!LO:TX:t=P:problem=mixed beam	!	!	!	!	!	!	!	!	!	!	!
4A\	.	.	16e/LL	.	16cc\LL	.	4A\	no-	4c\	-bis	4a\	-bis	4ee\	-bis
*	*	*	*	*	*	*	*	*	*	*Xij	*	*Xij	*	*
.	.	.	16aa\	.	16aa\	.	.	.	.	.	.	.	.	.
.	.	.	16aa\	.	16aa\	.	.	.	.	.	.	.	.	.
.	.	.	16aa\JJ	.	16aa\JJ	.	.	.	.	.	.	.	.	.
4C#X/	.	.	16aa\LL	.	16aa\LL	.	4C#X/	.	4r	.	4r	.	4r	.
.	.	.	16gg\	.	16gg\	.	.	.	.	.	.	.	.	.
.	.	.	16ff\	.	16ff\	.	.	.	.	.	.	.	.	.
.	.	.	16ee\JJ	.	16ee\JJ	.	.	.	.	.	.	.	.	.
=28	=28	=28	=28	=28	=28	=28	=28	=28	=28	=28	=28	=28	=28	=28
!	!	!	!	!	!	!	!	!	!LO:LB:g=original	!	!	!	!	!
!	!	!	!	!	!	!	!LO:LB:g=original	!	!	!	!	!	!	!
8D/	.	.	16ff\LL	.	16ff\LL	.	8D/	-bis	2r	.	2r	.	2r	.
.	.	.	16ddd\	.	16ddd\	.	.	.	.	.	.	.	.	.
8r	.	.	16ddd\	.	16ddd\	.	8r	.	.	.	.	.	.	.
.	.	.	16ddd\JJ	.	16ddd\JJ	.	.	.	.	.	.	.	.	.
8r	.	.	16ddd\LL	.	16ddd\LL	.	8r	.	.	.	.	.	.	.
.	.	.	16ccc\	.	16ccc\	.	.	.	.	.	.	.	.	.
8D\	.	.	16bb\	.	16bb\	.	8D\	o-	.	.	.	.	.	.
.	.	.	16aa\JJ	.	16aa\JJ	.	.	.	.	.	.	.	.	.
.	.	.	8qqaa/	.	8qqaa/	.	.	.	.	.	.	.	.	.
8E\L	#_	.	8gg#X\L	.	8gg#X\L	.	8E\L	.	4r	.	4r	.	4r	.
.	.	.	8qqff/	.	8qqff/	.	.	.	.	.	.	.	.	.
8D\J	x	.	8ee\J	.	8ee\J	.	8D\J	.	.	.	.	.	.	.
8C\L	6	.	16aa\LL	.	16aa\LL	.	8C\	-ra	8r	.	8r	.	8r	.
.	.	.	16ff\	.	16ff\	.	.	.	.	.	.	.	.	.
8D\J	.	.	16ee\	.	16ee\	.	8D\	pro	8f\	pro	8b\	pro	8dd\	pro
.	.	.	16dd\JJ	.	16dd\JJ	.	.	.	.	.	.	.	.	.
=29	=29	=29	=29	=29	=29	=29	=29	=29	=29	=29	=29	=29	=29	=29
!	!	!	!	!	!LO:LB:g=original	!	!	!	!	!	!	!	!	!
!	!	!	!LO:LB:g=original	!	!	!	!	!	!	!	!	!	!	!
8E\L	6 4	.	8a\L	.	8cc\L	.	2E\	no-	1e	no-	2a\	no-	2cc\	no-
8E\	.	.	8cc\	.	8aa 8cc\	.	.	.	.	.	.	.	.	.
8E\	#	.	8a\	.	8cc\	.	.	.	.	.	.	.	.	.
8E\J	.	.	8cc\J	.	8aa\J	.	.	.	.	.	.	.	.	.
*tremolo	*	*	*	*	*	*	*	*	*	*	*	*	*	*
8EE/L	.	.	8g#X\L	.	8b\L	.	2E\	.	.	.	2g#X\	.	2b\	.
8EE/	.	.	8b\	.	8gg#X\	.	.	.	.	.	.	.	.	.
8EE/	.	.	8g#\	.	8b\	.	.	.	.	.	.	.	.	.
!	!	!	!	!	!LO:TX:b:i:t=V&colon; Solo.	!	!	!	!	!	!	!	!	!
8EE/J	.	.	8b\J	.	8gg#\J	.	.	.	.	.	.	.	.	.
*Xtremolo	*	*	*	*	*	*	*	*	*	*	*	*	*	*
=30	=30	=30	=30	=30	=30	=30	=30	=30	=30	=30	=30	=30	=30	=30
!LO:TX:t=P:p = piano.:problem	!	!	!	!	!	!	!	!	!	!	!	!	!	!
!LO:TX:a:i:t=Solo	!	!	!	!	!LO:TX:a:i:t=Solo	!	!	!	!	!	!	!	!	!
!	!	!LO:DY:b:t=piano.	!	!	!	!	!	!	!	!	!	!	!	!
8AA/	.	p	8a/	.	16aa\LL	.	8AA/	-bis	4e\	-bis	4a\	-bis.	4cc\	-bis
.	.	.	.	.	16bb\J	.	.	.	.	.	.	.	.	.
8r	.	.	8r	.	8.ccc\J	.	8r	.	.	.	.	.	.	.
8r	.	.	4r	.	.	.	4r	.	4r	.	4r	.	4r	.
.	.	.	.	.	16bb\LL	.	.	.	.	.	.	.	.	.
8D\	#4| 2	.	.	.	16aa\	.	.	.	.	.	.	.	.	.
.	.	.	.	.	16gg#X\JJ	.	.	.	.	.	.	.	.	.
8C/	6	.	2r	.	16aa\LL	.	2r	.	2r	.	2r	.	2r	.
.	.	.	.	.	16bb\J	.	.	.	.	.	.	.	.	.
8r	.	.	.	.	8.ccc\J	.	.	.	.	.	.	.	.	.
8r	.	.	.	.	.	.	.	.	.	.	.	.	.	.
.	.	.	.	.	16bb\LL	.	.	.	.	.	.	.	.	.
8D\	#4| 2	.	.	.	16aa\	.	.	.	.	.	.	.	.	.
.	.	.	.	.	16gg#\JJ	.	.	.	.	.	.	.	.	.
=31	=31	=31	=31	=31	=31	=31	=31	=31	=31	=31	=31	=31	=31	=31
!LO:LB:g=original	!	!	!LO:TX:a:i:t=7	!	!	!	!	!	!	!	!	!	!	!
8C/	6	.	1r	.	16aa\LL	.	1r	.	1r	.	1r	.	1r	.
.	.	.	.	.	16bb\	.	.	.	.	.	.	.	.	.
8r	.	.	.	.	16ccc\	.	.	.	.	.	.	.	.	.
.	.	.	.	.	16bb\JJ	.	.	.	.	.	.	.	.	.
.	.	.	.	.	8qqddd/	.	.	.	.	.	.	.	.	.
8F\L	.	.	.	.	8ccc\L	.	.	.	.	.	.	.	.	.
8D#X\J	.	.	.	.	16bb\L	.	.	.	.	.	.	.	.	.
.	.	.	.	.	16aa\JJ	.	.	.	.	.	.	.	.	.
!	!	!	!	!	!LO:SIC:v:s=8qqaa/	!	!	!	!	!	!	!	!	!
.	.	.	.	.	8qqgg/	.	.	.	.	.	.	.	.	.
!LO:TX:t=P:problem=fragment do poł. t. 33 ujęty w (niepotrzebne) kreski z repetycją (?)	!	!	!	!	!	!	!	!	!	!	!	!	!	!
16E\LL	#	.	.	.	8gg#X\L	.	.	.	.	.	.	.	.	.
16e\	.	.	.	.	.	.	.	.	.	.	.	.	.	.
16d\	.	.	.	.	8ee\J	.	.	.	.	.	.	.	.	.
16e\JJ	.	.	.	.	.	.	.	.	.	.	.	.	.	.
16G#X\LL	.	.	.	.	4ee\	.	.	.	.	.	.	.	.	.
16B\J	.	.	.	.	.	.	.	.	.	.	.	.	.	.
8E\J	.	.	.	.	.	.	.	.	.	.	.	.	.	.
=32	=32	=32	=32	=32	=32	=32	=32	=32	=32	=32	=32	=32	=32	=32
8A\	.	.	1r	.	16a/LL	.	1r	.	1r	.	1r	.	1r	.
.	.	.	.	.	16b/J	.	.	.	.	.	.	.	.	.
8r	.	.	.	.	8.cc/J	.	.	.	.	.	.	.	.	.
8r	.	.	.	.	.	.	.	.	.	.	.	.	.	.
.	.	.	.	.	16b/LL	.	.	.	.	.	.	.	.	.
8d\	#4| 2	.	.	.	16a/	.	.	.	.	.	.	.	.	.
.	.	.	.	.	16g#X/JJ	.	.	.	.	.	.	.	.	.
!	!	!	!	!	!LO:LB:g=original	!	!	!	!	!	!	!	!	!
8c\	6	.	.	.	16a/LL	.	.	.	.	.	.	.	.	.
.	.	.	.	.	16b/J	.	.	.	.	.	.	.	.	.
8r	.	.	.	.	8.cc/J	.	.	.	.	.	.	.	.	.
8r	.	.	.	.	.	.	.	.	.	.	.	.	.	.
.	.	.	.	.	16b/LL	.	.	.	.	.	.	.	.	.
8d\	#4| 2	.	.	.	16a/	.	.	.	.	.	.	.	.	.
.	.	.	.	.	16g#/JJ	.	.	.	.	.	.	.	.	.
=33	=33	=33	=33	=33	=33	=33	=33	=33	=33	=33	=33	=33	=33	=33
8c\	.	.	1r	.	16a/LL	.	1r	.	1r	.	1r	.	1r	.
.	.	.	.	.	16b/	.	.	.	.	.	.	.	.	.
8r	.	.	.	.	16cc/	.	.	.	.	.	.	.	.	.
.	.	.	.	.	16b/JJ	.	.	.	.	.	.	.	.	.
.	.	.	.	.	8qqdd/	.	.	.	.	.	.	.	.	.
8F\L	.	.	.	.	8cc\L	.	.	.	.	.	.	.	.	.
8D#X\J	.	.	.	.	16b\L	.	.	.	.	.	.	.	.	.
.	.	.	.	.	16a\JJ	.	.	.	.	.	.	.	.	.
!	!	!	!	!	!LO:TX:t=P:problem=nadliczbowy fragment w Org	!	!	!	!	!	!	!	!	!
!LO:TX:t=P:problem=fragment do poł. t. 35 zapisany powtórką	!	!	!	!	!LO:TX:t=P:problem=niepotrzebnie powtórzony fragment w Org	!	!	!	!	!	!	!	!	!
16E\LL	#	.	.	.	2ryy	.	.	.	.	.	.	.	.	.
16e\	.	.	.	.	.	.	.	.	.	.	.	.	.	.
16d\	.	.	.	.	.	.	.	.	.	.	.	.	.	.
16e\JJ	.	.	.	.	.	.	.	.	.	.	.	.	.	.
16G#X\LL	.	.	.	.	.	.	.	.	.	.	.	.	.	.
16B\J	.	.	.	.	.	.	.	.	.	.	.	.	.	.
8E\J	.	.	.	.	.	.	.	.	.	.	.	.	.	.
=34	=34	=34	=34	=34	=34	=34	=34	=34	=34	=34	=34	=34	=34	=34
!	!	!	!LO:TX:t=P:problem=nadliczbowy takt w Org	!	!	!	!LO:TX:t=P:problem=nadliczbowy takt w Org	!	!LO:TX:t=P:problem=nadliczbowy takt w Org	!	!LO:TX:t=P:problem=nadliczbowy takt w Org	!	!LO:TX:t=P:problem=nadliczbowy takt w Org	!
8A\	.	.	1ryy	.	1ryy	.	1ryy	.	1ryy	.	1ryy	.	1ryy	.
8r	.	.	.	.	.	.	.	.	.	.	.	.	.	.
8r	.	.	.	.	.	.	.	.	.	.	.	.	.	.
8d\	#4| 2	.	.	.	.	.	.	.	.	.	.	.	.	.
8c\	6	.	.	.	.	.	.	.	.	.	.	.	.	.
8r	.	.	.	.	.	.	.	.	.	.	.	.	.	.
8r	.	.	.	.	.	.	.	.	.	.	.	.	.	.
8d\	#4| 2	.	.	.	.	.	.	.	.	.	.	.	.	.
=35	=35	=35	=35	=35	=35	=35	=35	=35	=35	=35	=35	=35	=35	=35
8c\	.	.	1r	.	2ryy	.	1r	.	1r	.	1r	.	1r	.
8r	.	.	.	.	.	.	.	.	.	.	.	.	.	.
8F\L	.	.	.	.	.	.	.	.	.	.	.	.	.	.
8D#X\J	.	.	.	.	.	.	.	.	.	.	.	.	.	.
.	.	.	.	.	8qqa/	.	.	.	.	.	.	.	.	.
16E\LL	#	.	.	.	8g#X/L	.	.	.	.	.	.	.	.	.
16e\	.	.	.	.	.	.	.	.	.	.	.	.	.	.
16d\	.	.	.	.	8eeJ 8b 8e/	.	.	.	.	.	.	.	.	.
16e\JJ	.	.	.	.	.	.	.	.	.	.	.	.	.	.
!LO:SIC:v:s=16G#\LL	!	!	!	!	!	!	!	!	!	!	!	!	!	!
16G\LL	.	.	.	.	4ee 4b 4e/	.	.	.	.	.	.	.	.	.
16B\J	.	.	.	.	.	.	.	.	.	.	.	.	.	.
8E\J	.	.	.	.	.	.	.	.	.	.	.	.	.	.
=36	=36	=36	=36	=36	=36	=36	=36	=36	=36	=36	=36	=36	=36	=36
*	*	*	*	*	*^	*	*	*	*	*	*	*	*	*
8E\L	.	.	1r	.	32g#X/LLL	16g#\	.	1r	.	1r	.	1r	.	1r	.
.	.	.	.	.	32b/	.	.	.	.	.	.	.	.	.	.
.	.	.	.	.	32ee/	16ryy	.	.	.	.	.	.	.	.	.
.	.	.	.	.	32b/JJJ	.	.	.	.	.	.	.	.	.	.
8G#X\J	.	.	.	.	32e/LLL	16e\	.	.	.	.	.	.	.	.	.
.	.	.	.	.	32b/	.	.	.	.	.	.	.	.	.	.
.	.	.	.	.	32ee/	16ryy	.	.	.	.	.	.	.	.	.
.	.	.	.	.	32b/JJJ	.	.	.	.	.	.	.	.	.	.
4G#\	.	.	.	.	32g#/LLL	16g#\	.	.	.	.	.	.	.	.	.
.	.	.	.	.	32b/	.	.	.	.	.	.	.	.	.	.
.	.	.	.	.	32ee/	16ryy	.	.	.	.	.	.	.	.	.
.	.	.	.	.	32b/JJJ	.	.	.	.	.	.	.	.	.	.
.	.	.	.	.	32e/LLL	16e\	.	.	.	.	.	.	.	.	.
.	.	.	.	.	32b/	.	.	.	.	.	.	.	.	.	.
.	.	.	.	.	32ee/	16ryy	.	.	.	.	.	.	.	.	.
.	.	.	.	.	32b/JJJ	.	.	.	.	.	.	.	.	.	.
!	!	!	!	!	!	!LO:LB:g=original	!	!	!	!	!	!	!	!	!
8E\L	.	.	.	.	32a/LLL	16a\	.	.	.	.	.	.	.	.	.
.	.	.	.	.	32cc/	.	.	.	.	.	.	.	.	.	.
.	.	.	.	.	32ee/	16ryy	.	.	.	.	.	.	.	.	.
.	.	.	.	.	32cc/JJJ	.	.	.	.	.	.	.	.	.	.
8A\J	.	.	.	.	32e/LLL	16e\	.	.	.	.	.	.	.	.	.
.	.	.	.	.	32cc/	.	.	.	.	.	.	.	.	.	.
.	.	.	.	.	32ee/	16ryy	.	.	.	.	.	.	.	.	.
.	.	.	.	.	32cc/JJJ	.	.	.	.	.	.	.	.	.	.
4A\	.	.	.	.	32a/LLL	16a\	.	.	.	.	.	.	.	.	.
.	.	.	.	.	32cc/	.	.	.	.	.	.	.	.	.	.
.	.	.	.	.	32ee/	16ryy	.	.	.	.	.	.	.	.	.
.	.	.	.	.	32cc/JJJ	.	.	.	.	.	.	.	.	.	.
.	.	.	.	.	32e/LLL	16e\	.	.	.	.	.	.	.	.	.
.	.	.	.	.	32cc/	.	.	.	.	.	.	.	.	.	.
.	.	.	.	.	32ee/	16ryy	.	.	.	.	.	.	.	.	.
.	.	.	.	.	32cc/JJJ	.	.	.	.	.	.	.	.	.	.
=37	=37	=37	=37	=37	=37	=37	=37	=37	=37	=37	=37	=37	=37	=37	=37
!LO:LB:g=original	!	!	!	!	!	!	!	!	!	!	!	!	!	!	!
8E\L	.	.	1r	.	32g#X/LLL	16g#\	.	1r	.	1r	.	1r	.	1r	.
.	.	.	.	.	32b/	.	.	.	.	.	.	.	.	.	.
.	.	.	.	.	32ee/	16ryy	.	.	.	.	.	.	.	.	.
.	.	.	.	.	32b/JJJ	.	.	.	.	.	.	.	.	.	.
8G#X\J	.	.	.	.	32e/LLL	16e\	.	.	.	.	.	.	.	.	.
.	.	.	.	.	32b/	.	.	.	.	.	.	.	.	.	.
.	.	.	.	.	32ee/	16ryy	.	.	.	.	.	.	.	.	.
.	.	.	.	.	32b/JJJ	.	.	.	.	.	.	.	.	.	.
4G#\	.	.	.	.	32g#/LLL	16g#\	.	.	.	.	.	.	.	.	.
.	.	.	.	.	32b/	.	.	.	.	.	.	.	.	.	.
.	.	.	.	.	32ee/	16ryy	.	.	.	.	.	.	.	.	.
.	.	.	.	.	32b/JJJ	.	.	.	.	.	.	.	.	.	.
.	.	.	.	.	32e/LLL	16e\	.	.	.	.	.	.	.	.	.
.	.	.	.	.	32b/	.	.	.	.	.	.	.	.	.	.
.	.	.	.	.	32ee/	16ryy	.	.	.	.	.	.	.	.	.
.	.	.	.	.	32b/JJJ	.	.	.	.	.	.	.	.	.	.
!	!	!	!	!	!	!LO:LB:g=original	!	!	!	!	!	!	!	!	!
8E\L	.	.	.	.	32a/LLL	16a\	.	.	.	.	.	.	.	.	.
.	.	.	.	.	32cc/	.	.	.	.	.	.	.	.	.	.
.	.	.	.	.	32ee/	16ryy	.	.	.	.	.	.	.	.	.
.	.	.	.	.	32cc/JJJ	.	.	.	.	.	.	.	.	.	.
8A\J	.	.	.	.	32e/LLL	16e\	.	.	.	.	.	.	.	.	.
.	.	.	.	.	32cc/	.	.	.	.	.	.	.	.	.	.
.	.	.	.	.	32ee/	16ryy	.	.	.	.	.	.	.	.	.
.	.	.	.	.	32cc/JJJ	.	.	.	.	.	.	.	.	.	.
4A\	.	.	.	.	32a/LLL	16a\	.	.	.	.	.	.	.	.	.
.	.	.	.	.	32cc/	.	.	.	.	.	.	.	.	.	.
.	.	.	.	.	32ee/	16ryy	.	.	.	.	.	.	.	.	.
.	.	.	.	.	32cc/JJJ	.	.	.	.	.	.	.	.	.	.
.	.	.	.	.	32e/LLL	16e\	.	.	.	.	.	.	.	.	.
.	.	.	.	.	32cc/	.	.	.	.	.	.	.	.	.	.
.	.	.	.	.	32ee/	16ryy	.	.	.	.	.	.	.	.	.
.	.	.	.	.	32cc/JJJ	.	.	.	.	.	.	.	.	.	.
*	*	*	*	*	*v	*v	*	*	*	*	*	*	*	*	*
=38	=38	=38	=38	=38	=38	=38	=38	=38	=38	=38	=38	=38	=38	=38
4d\	.	.	1r	.	8ffL 8a 8d/	.	1r	.	1r	.	1r	.	1r	.
.	.	.	.	.	[8ffJ 8a 8d/	.	.	.	.	.	.	.	.	.
8r	.	.	.	.	32ff/LLL]	.	.	.	.	.	.	.	.	.
.	.	.	.	.	32ee/	.	.	.	.	.	.	.	.	.
.	.	.	.	.	32dd/	.	.	.	.	.	.	.	.	.
.	.	.	.	.	32cc/JJJ	.	.	.	.	.	.	.	.	.
8d\	.	.	.	.	32dd/LLL	.	.	.	.	.	.	.	.	.
.	.	.	.	.	32cc/	.	.	.	.	.	.	.	.	.
.	.	.	.	.	32b/	.	.	.	.	.	.	.	.	.
.	.	.	.	.	32a/JJJ	.	.	.	.	.	.	.	.	.
8e\	.	.	.	.	32g#X/LLL	.	.	.	.	.	.	.	.	.
.	.	.	.	.	32e/	.	.	.	.	.	.	.	.	.
.	.	.	.	.	32fn/	.	.	.	.	.	.	.	.	.
.	.	.	.	.	32g#/JJJ	.	.	.	.	.	.	.	.	.
8r	.	.	.	.	32a\LLL	.	.	.	.	.	.	.	.	.
.	.	.	.	.	32b\	.	.	.	.	.	.	.	.	.
.	.	.	.	.	32cc\	.	.	.	.	.	.	.	.	.
.	.	.	.	.	32dd\JJJ	.	.	.	.	.	.	.	.	.
8G#X\	.	.	.	.	32ee\LLL	.	.	.	.	.	.	.	.	.
.	.	.	.	.	32ff\	.	.	.	.	.	.	.	.	.
.	.	.	.	.	32gg\	.	.	.	.	.	.	.	.	.
.	.	.	.	.	32aa\JJJ	.	.	.	.	.	.	.	.	.
8r	.	.	.	.	32bb\LLL	.	.	.	.	.	.	.	.	.
.	.	.	.	.	32gg\	.	.	.	.	.	.	.	.	.
.	.	.	.	.	32ee\	.	.	.	.	.	.	.	.	.
.	.	.	.	.	32dd\JJJ	.	.	.	.	.	.	.	.	.
=39	=39	=39	=39	=39	=39	=39	=39	=39	=39	=39	=39	=39	=39	=39
8A\	.	.	1r	.	32cc\LLL	.	1r	.	1r	.	1r	.	1r	.
.	.	.	.	.	32a\	.	.	.	.	.	.	.	.	.
.	.	.	.	.	32b\	.	.	.	.	.	.	.	.	.
.	.	.	.	.	32cc\JJJ	.	.	.	.	.	.	.	.	.
8r	.	.	.	.	32dd\LLL	.	.	.	.	.	.	.	.	.
.	.	.	.	.	32ee\	.	.	.	.	.	.	.	.	.
.	.	.	.	.	32ff\	.	.	.	.	.	.	.	.	.
.	.	.	.	.	32gg\JJJ	.	.	.	.	.	.	.	.	.
4r	.	.	.	.	16aa\LL	.	.	.	.	.	.	.	.	.
.	.	.	.	.	16bb\	.	.	.	.	.	.	.	.	.
.	.	.	.	.	16ccc\	.	.	.	.	.	.	.	.	.
.	.	.	.	.	16ddd\JJ	.	.	.	.	.	.	.	.	.
4r	.	.	.	.	16eee\LL	.	.	.	.	.	.	.	.	.
.	.	.	.	.	16fff\	.	.	.	.	.	.	.	.	.
.	.	.	.	.	16ggg#X\	.	.	.	.	.	.	.	.	.
.	.	.	.	.	16aaa\JJ	.	.	.	.	.	.	.	.	.
4E\	.	.	.	.	8ee\L	.	.	.	.	.	.	.	.	.
!	!	!	!	!	!LO:TX:t=P:tr = t:problem	!	!	!	!	!	!	!	!	!
.	.	.	.	.	8bbt\J	.	.	.	.	.	.	.	.	.
=40	=40	=40	=40	=40	=40	=40	=40	=40	=40	=40	=40	=40	=40	=40
!	!	!	!LO:TX:t=P:f = for:problem	!	!	!	!	!	!	!	!	!	!	!
!	!	!	!LO:TX:a:i:t=Tutti	!	!	!	!	!	!	!	!	!	!	!
8A\L	.	.	2r	f	8aa\L	.	2r	.	2r	.	2r	.	2r	.
8E\J	.	.	.	.	8ee\J	.	.	.	.	.	.	.	.	.
!	!	!	!	!	!LO:TX:a:i:t=Tutti	!	!	!	!	!	!	!	!	!
!	!	!	!	!	!	!LO:DY:b:t=for.	!	!	!	!	!	!	!	!
4AA/	.	.	.	.	4a/	f	.	.	.	.	.	.	.	.
8r	.	.	16eeLL 16e/	.	16aa\LL	.	8A\	Sa-	8e\	Spe-	8a\	Vas	8cc\	Ro-
.	.	.	16ee 16e/	.	16ee\	.	.	.	.	.	.	.	.	.
!LO:TX:a:i:t=Tutti	!	!	!	!	!	!	!	!	!	!	!	!	!	!
!	!	!LO:DY:b:t=for&colon;	!	!	!	!	!	!	!	!	!	!	!	!
8A\L	.	f	16ee 16e/	.	16ee\	.	8A\	-lus	8e\	-cu-	8a\	in-	8cc\	-sa
.	.	.	16eeJJ 16e/	.	16ee\JJ	.	.	.	.	.	.	.	.	.
*	*	*	*tremolo	*	*	*	*	*	*	*	*	*	*	*
8A\	.	.	16ee 16e/LL	.	16ee\LL	.	8A\	in-	8e\	-lum	8a\	-si-	8cc\	mys-
.	.	.	16ee 16e/	.	16aa\	.	.	.	.	.	.	.	.	.
8A\J	.	.	16ee 16e/	.	16bb\	.	8A\	-fir-	8e\	Jus-	16a\	-gne	16cc\	-ti-
.	.	.	16ee 16e/JJ	.	16ccc\JJ	.	.	.	.	.	16a\	de-	16cc\	-ca
=41	=41	=41	=41	=41	=41	=41	=41	=41	=41	=41	=41	=41	=41	=41
*tremolo	*	*	*	*	*	*	*	*	*	*	*	*	*	*
8G#X\L	.	.	16ee 16e/LL	.	16bb\LL	.	4G#X\	-mo-	16e\	-ti-	8b\	-vo-	8dd\	tur-
.	.	.	16ee 16e/	.	16ee\	.	.	.	16e\	-ti-	.	.	.	.
8G#X\	.	.	16ee 16e/	.	16ee\	.	.	.	8e\	-ae	8b\	-ti-	16dd\	-ris
.	.	.	16ee 16e/	.	16ee\JJ	.	.	.	.	.	.	.	16dd\	da-
8G#X\	.	.	16ee 16e/	.	16ee\LL	.	8G#\	-rum	16e\	Se-	8b\	-o-	16dd\	-vi-
.	.	.	16ee 16e/	.	16bb\	.	.	.	16e\	-des	.	.	16dd\	-di-
8G#X\J	.	.	16ee 16e/	.	16ccc\	.	8G#\	Re-	16e\	Sa-	16b\	-nis	8dd\	-ca
.	.	.	16ee 16e/JJ	.	16ddd\JJ	.	.	.	16e\	-pi-	16b\	o-	.	.
*Xtremolo	*	*	*	*	*	*	*	*	*	*	*	*	*	*
!	!	!	!	!	!	!	!LO:LB:g=original	!	!	!	!	!	!	!
!	!	!	!	!	!LO:LB:g=original	!	!	!	!	!	!	!	!	!
8A\L	.	.	16ee 16e/LL	.	16ccc\LL	.	8A\	-fu-	16e\	-en-	8a\	-ra	8cc\	tur-
.	.	.	16ee 16e/	.	16ee\	.	.	.	16e\	-ti-	.	.	.	.
8A\	.	.	16ee 16e/	.	16ee\	.	16A\	-gi-	8e\	-ae	8a\	pro	16cc\	-ris
.	.	.	16ee 16e/	.	16ee\JJ	.	16A\	-um	.	.	.	.	16cc\	E-
8F\	.	.	16ee 16e/	.	16ee\LL	.	8F\	pec-	8e\	Cau-	8a\	no-	16cc\	-bur-
.	.	.	16ee 16e/	.	32ccc\L	.	.	.	.	.	.	.	16cc\	-ne-
.	.	.	.	.	32bb\JJJ	.	.	.	.	.	.	.	.	.
.	.	.	.	.	8qddd/	.	.	.	.	.	.	.	.	.
8F\J	.	.	16ee 16e/	.	16ccc\LL	.	8F\	-ca-	8e\	-sa	8a\	-bis	8cc\	-a
.	.	.	16ee 16e/JJ	.	32bb\L	.	.	.	.	.	.	.	.	.
.	.	.	.	.	32aa\JJJ	.	.	.	.	.	.	.	.	.
=42	=42	=42	=42	=42	=42	=42	=42	=42	=42	=42	=42	=42	=42	=42
!LO:LB:g=original	!	!	!	!	!	!	!	!	!	!	!	!	!LO:LB:g=original	!
8E\L	.	.	16ee 16e/LL	.	16gg#X\LL	.	8E\L	-to-	8e\	nos-	8b\	do-	4dd\	o-
.	.	.	16ee 16e/	.	16ee\	.	.	.	.	.	.	.	.	.
8G#X\J	.	.	16ee 16e/	.	16ee\	.	8G#X\J	.	16e\	-trae	8b\	-mus	.	.
.	.	.	16ee 16e/	.	16ee\JJ	.	.	.	16e\	lae-	.	.	.	.
4G#\	.	.	16ee 16e/	.	16ee\LL	.	4G#\	-rum	16e\	-ti-	16b\	Au-	8dd\	-ra
.	.	.	16ee 16e/	.	16gg#\	.	.	.	16e\	-ti-	16b\	-re-	.	.
.	.	.	16ee 16e/	.	16aa\	.	.	.	8e\	-ae	8b\	-a	8dd\	pro
.	.	.	16ee 16e/JJ	.	16bb\JJ	.	.	.	.	.	.	.	.	.
8r	.	.	16ee 16e/LL	.	16aa\LL	.	8r	.	8e\	o-	8a\	foe-	4cc\	no-
.	.	.	16ee 16e/	.	16ee\	.	.	.	.	.	.	.	.	.
8A\L	.	.	16ee 16e/	.	16ee\	.	8A\	o-	16e\	-ra	16a\	-de-	.	.
.	.	.	16ee 16e/	.	16ee\JJ	.	.	.	16e\	pro	16a\	-ris	.	.
8A\	.	.	16ee 16e/	.	16ee\LL	.	8A\	-ra	8e\	no-	8a\	Ar-	4cc\	-bis
.	.	.	16ee 16e/	.	16aa\	.	.	.	.	.	.	.	.	.
8A\J	.	.	16ee 16e/	.	16bb\	.	8A\	pro	8e\	-bis	8a\	-ca	.	.
.	.	.	16ee 16e/JJ	.	16ccc\JJ	.	.	.	.	.	.	.	.	.
=43	=43	=43	=43	=43	=43	=43	=43	=43	=43	=43	=43	=43	=43	=43
*tremolo	*	*	*	*	*	*	*	*	*	*	*	*	*	*
!	!	!	!	!	!	!	!	!	!	!	!LO:LB:g=original	!	!	!
!	!	!	!LO:LB:g=original	!	!	!	!	!	!	!	!	!	!	!
8G#X\L	.	.	16ee 16e/LL	.	16bb\LL	.	4G#X\	no-	8e\	Ia-	8b\	o-	8dd\	Con-
.	.	.	16ee 16e/	.	16ee\	.	.	.	.	.	.	.	.	.
8G#X\	.	.	16ee 16e/	.	16ee\	.	.	.	16e\	-nu-	16b\	-ra	8dd\	-ſo-
.	.	.	16ee 16e/	.	16ee\JJ	.	.	.	16e\	-a	16b\	pro	.	.
8G#X\	.	.	16ee 16e/	.	16ee\LL	.	8G#\	-bis	8e\	Cae-	8b\	no-	8dd\	-la-
.	.	.	16ee 16e/	.	16bb\	.	.	.	.	.	.	.	.	.
8G#X\J	.	.	16ee 16e/	.	16ccc\	.	8G#\	Re-	16e\	-li	8b\	.	8dd\	-trix
.	.	.	16ee 16e/JJ	.	16ddd\JJ	.	.	.	16e\	o-	.	.	.	.
8A\L	.	.	16ee 16e/LL	.	16ccc\LL	.	4A\	-gi-	8e\	-ra	4a\	-bis	4cc\	af-
.	.	.	16ee 16e/	.	16ee\	.	.	.	.	.	.	.	.	.
8A\	.	.	16ee 16e/	.	16ee\	.	.	.	8e\	pro	.	.	.	.
.	.	.	16ee 16e/	.	16ee\JJ	.	.	.	.	.	.	.	.	.
8A\	.	.	16ee 16e/	.	16eee\LL	.	4A\	-na	8c\	no-	4a\	Au-	4ee\	-flic-
.	.	.	16ee 16e/	.	16ee\	.	.	.	.	.	.	.	.	.
8A\J	.	.	16ee 16e/	.	16ccc\	.	.	.	8c\	-bis	.	.	.	.
.	.	.	16ee 16e/JJ	.	16ee\JJ	.	.	.	.	.	.	.	.	.
=44	=44	=44	=44	=44	=44	=44	=44	=44	=44	=44	=44	=44	=44	=44
!	!	!	!	!	!	!	!LO:LB:g=original	!	!	!	!	!	!	!
!	!	!	!	!	!LO:LB:g=original	!	!	!	!	!	!	!	!	!
8G#X\L	.	.	16ee 16e/LL	.	16ddd\LL	.	8G#X\	Vir-	16d\	Stel-	8b\	-xi-	8ee\	-to-
.	.	.	16ee 16e/	.	16ee\	.	.	.	16d\	-la	.	.	.	.
8G#X\	.	.	16ee 16e/	.	16ee\	.	8G#\	-gi-	16d\	ma-	8b\	-li-	16ee\	-rum
.	.	.	16ee 16e/	.	16ee\JJ	.	.	.	16d\	-tu-	.	.	16ee\	o-
8G#X\	.	.	16ee 16e/	.	16ddd\LL	.	8G#\	-num	8d\	-ti-	8b\	-um	8ee\	-ra
.	.	.	16ee 16e/	.	16ee\	.	.	.	.	.	.	.	.	.
8G#X\J	.	.	16ee 16e/	.	16bb\	.	8G#\	Re-	16d\	-na	8b\	Chris-	8ee\	pro
.	.	.	16ee 16e/JJ	.	16ee\JJ	.	.	.	16d\	o-	.	.	.	.
8A\L	.	.	16ee 16e/LL	.	16ccc\LL	.	4A\	-gi-	8c\	-ra	8a\	-ti-	8ee\	no-
.	.	.	16ee 16e/	.	16ee\	.	.	.	.	.	.	.	.	.
8A\	.	.	16ee 16e/	.	16ee\	.	.	.	8c\	pro	8a\	-a-	8ee\	-bis
.	.	.	16ee 16e/	.	16ee\JJ	.	.	.	.	.	.	.	.	.
8A\	.	.	16ee 16e/	.	16eee\LL	.	8A\	-na	8c\	no-	8a\	-no-	4ee\	Re-
.	.	.	16ee 16e/	.	16ee\	.	.	.	.	.	.	.	.	.
8A\J	.	.	16ee 16e/	.	16ccc\	.	8A\	San-	16c\	-bis	16a\	-rum	.	.
.	.	.	16ee 16e/JJ	.	16ee\JJ	.	.	.	16c\	Re-	16a\	o-	.	.
=45	=45	=45	=45	=45	=45	=45	=45	=45	=45	=45	=45	=45	=45	=45
8G#X\L	.	.	16ee 16e/LL	.	16ddd\LL	.	8G#X\	-cto-	8d\	-gi-	8b\	-ra	8ee\	-gi-
.	.	.	16ee 16e/	.	16ee\	.	.	.	.	.	.	.	.	.
8G#X\	.	.	16ee 16e/	.	16ee\	.	8G#\	-rum	8d\	-na	8b\	pro	8ee\	-na
.	.	.	16ee 16e/	.	16ee\JJ	.	.	.	.	.	.	.	.	.
8G#X\	.	.	16ee 16e/	.	16ddd\LL	.	8G#\	om-	8d\	Mar-	8b\	no-	8ee\	An-
.	.	.	16ee 16e/	.	16ee\	.	.	.	.	.	.	.	.	.
8G#X\J	.	.	16ee 16e/	.	16bb\	.	8G#\	-ni-	8d\	-tÿ-	16b\	-bis	8ee\	-ge-
.	.	.	16ee 16e/JJ	.	16ee\JJ	.	.	.	.	.	16b\	Re-	.	.
*Xtremolo	*	*	*	*	*	*	*	*	*	*	*	*	*	*
!	!	!	!	!	!	!	!	!	!	!	!	!	!LO:LB:g=original	!
8A\L	.	.	16ee 16e/LL	.	16ccc\LL	.	4A\	-um	4c\	-rum	16a\	-gi-	4ee\	-lo-
.	.	.	16ee 16e/	.	16ee\	.	.	.	.	.	16a\	-na	.	.
8A\	.	.	16ee 16e/	.	16ee\	.	.	.	.	.	16a\	Pro-	.	.
.	.	.	16ee 16e/	.	16ee\JJ	.	.	.	.	.	16a\	-phe-	.	.
!	!	!	!	!	!	!	!	!	!	!	!LO:LB:g=original	!	!	!
8c\	6	.	16ee 16e/	.	16aa\LL	.	4c\	o-	4c\	Re-	8a\	-ta-	8ee\	-rum
.	.	.	16ee 16e/	.	16ee\	.	.	.	.	.	.	.	.	.
8c\J	.	.	16ee 16e/	.	16ee\	.	.	.	.	.	16a\	-rum	8ee\	Re-
.	.	.	16ee 16e/JJ	.	16ee\JJ	.	.	.	.	.	16a\	Re-	.	.
*	*	*	*Xtremolo	*	*	*	*	*	*	*	*	*	*	*
=46	=46	=46	=46	=46	=46	=46	=46	=46	=46	=46	=46	=46	=46	=46
4B\	5	.	16ff\LL	.	16ff\LL	.	2B\	.	8d\	-gi-	8b\	-gi-	8ff\	-gi-
.	.	.	16dd\J	.	16dd\J	.	.	.	.	.	.	.	.	.
!	!	!	!LO:TX:t=P:tr = t:problem	!	!LO:TX:t=P:tr = t:problem	!	!	!	!	!	!	!	!	!
.	.	.	8ddT\J	.	8ddT\J	.	.	.	8d\	-na	16b\	-na	8f/	-na
.	.	.	.	.	.	.	.	.	.	.	16b\	A-	.	.
4B\	6	.	16gg\LL	.	16gg\LL	.	.	.	8B\	Con-	8g\	-pos-	8dd\	Pa-
.	.	.	16dd\	.	16dd\	.	.	.	.	.	.	.	.	.
.	.	.	16dd\	.	16dd\	.	.	.	8B\	-feſ-	8g\	-to-	16dd\	-tri-
.	.	.	16dd\JJ	.	16dd\JJ	.	.	.	.	.	.	.	16dd\	-ar-
4A\	5	.	16ee\LL	.	16ee\LL	.	2A\	.	8c\	-so-	8a\	-lo-	8ee\	-cha-
.	.	.	16cc\J	.	16cc\J	.	.	.	.	.	.	.	.	.
!	!	!	!LO:TX:t=P:tr = t:problem	!	!LO:TX:t=P:tr = t:problem	!	!	!	!	!	!	!	!	!
.	.	.	8ccT\J	.	8ccT\J	.	.	.	8c\	-rum	8a\	-rum	8e/	-rum
4A\	6	.	16ff\LL	.	16ff\LL	.	.	.	8A\	o-	4f\	o-	4cc\	o-
.	.	.	16cc\	.	16cc\	.	.	.	.	.	.	.	.	.
.	.	.	16cc\	.	16cc\	.	.	.	16A\	-ra	.	.	.	.
.	.	.	16cc\JJ	.	16cc\JJ	.	.	.	16A\	pro	.	.	.	.
=47	=47	=47	=47	=47	=47	=47	=47	=47	=47	=47	=47	=47	=47	=47
!	!	!	!	!	!LO:LB:g=original	!	!	!	!	!	!	!	!	!
4G#X\	5	.	16dd\LL	.	16dd\LL	.	4G#X\	-ra	4B\	no-	8g#X\	-ra	8dd\	-ra
.	.	.	16b\J	.	16b\J	.	.	.	.	.	.	.	.	.
!	!	!	!	!	!LO:TX:t=P:tr = t:problem	!	!	!	!	!	!	!	!	!
.	.	.	8b\J	.	8bt\J	.	.	.	.	.	8g#\	pro	8d/	pro-
4G#\	6	.	16ee\LL	.	16ee\LL	.	4G#\	pro	8G#X\L	.	4e\	no-	4b\	-no-
.	.	.	16b\	.	16b\	.	.	.	.	.	.	.	.	.
.	.	.	16b\	.	16b\	.	.	.	8B\J	.	.	.	.	.
.	.	.	16b\JJ	.	16b\JJ	.	.	.	.	.	.	.	.	.
!LO:TX:t=P:problem=mixed beam	!	!	!	!	!	!	!	!	!	!	!	!	!	!
!	!	!	!	!	!	!	!LO:LB:g=original	!	!	!	!	!	!	!
8A\L	.	.	16cc\LL	.	16cc\LL	.	8A\L	no-	8A\	-bis	8e\	-bis	8cc\	-bis
.	.	.	16a\	.	16a\	.	.	.	.	.	.	.	.	.
8G#\	.	.	16dd\	.	16dd\	.	8G#\J	.	8r	.	8r	.	8r	.
.	.	.	16b\JJ	.	16b\JJ	.	.	.	.	.	.	.	.	.
!	!	!	!	!	!	!	!LO:TX:t=P:problem=mixed beam	!	!	!	!	!	!	!
8A\	.	.	16ee\LL	.	16ee\LL	.	8A\L	.	8r	.	8r	.	8r	.
.	.	.	16cc\	.	16cc\	.	.	.	.	.	.	.	.	.
8C/J	.	.	16b\	.	16b\	.	8C/J	.	8c\	o-	8e\	o-	8a\	o-
.	.	.	16a\JJ	.	16a\JJ	.	.	.	.	.	.	.	.	.
=48	=48	=48	=48	=48	=48	=48	=48	=48	=48	=48	=48	=48	=48	=48
!LO:LB:g=original	!	!	!	!	!	!	!	!	!	!	!	!	!	!
8E\	#	.	16g#X/LL	.	16g#X/LL	.	8E\	-bis	8B\	-ra	8e\	-ra	8g#X/	-ra
.	.	.	16e/	.	16e/	.	.	.	.	.	.	.	.	.
8r	.	.	16a/	.	16a/	.	8r	.	8r	.	8r	.	8r	.
.	.	.	16f#X/JJ	.	16f#X/JJ	.	.	.	.	.	.	.	.	.
8E\L	#_	.	16b/LL	.	16b/LL	.	8E\L	o-	8r	.	8r	.	8r	.
.	.	.	16g#/	.	16g#/	.	.	.	.	.	.	.	.	.
*	*	*	*	*	*	*	*	*	*	*ij	*	*	*	*ij
8D\J	x	.	16f#/	.	16f#/	.	8D\J	.	8B\	o-	8e\	o-	8g#/	o-
.	.	.	16e/JJ	.	16e/JJ	.	.	.	.	.	.	.	.	.
!	!	!	!	!	!	!	!	!	!	!	!LO:LB:g=original	!	!	!
8Cn\L	.	.	16cc\LL	.	16cc\LL	.	8AA/	-ra	8c\	-ra	8e\	-ra	8a/	-ra
*	*	*	*	*	*	*	*	*	*	*Xij	*	*	*	*Xij
.	.	.	16a\	.	16a\	.	.	.	.	.	.	.	.	.
8G#X\	.	.	16dd\	.	16dd\	.	8G#X\	pro	8r	.	8r	.	8r	.
.	.	.	16b\JJ	.	16b\JJ	.	.	.	.	.	.	.	.	.
!	!	!	!	!	!	!	!LO:TX:t=P:problem=mixed beam	!	!	!	!	!	!	!
8A\	.	.	16ee\LL	.	16ee\LL	.	8A\L	no-	8r	.	8r	.	8r	.
.	.	.	16cc\	.	16cc\	.	.	.	.	.	.	.	.	.
*	*	*	*	*	*	*	*	*	*	*ij	*	*	*	*
8AA/J	.	.	16b\	.	16b\	.	8AA/J	.	8c\	o-	8a\	o-	8ee\	o-
.	.	.	16a\JJ	.	16a\JJ	.	.	.	.	.	.	.	.	.
=49	=49	=49	=49	=49	=49	=49	=49	=49	=49	=49	=49	=49	=49	=49
!	!	!	!	!	!	!	!	!	!	!	!	!	!LO:LB:g=original	!
4D\	.	.	16ff\LL	.	16ff\LL	.	4D\	-bis	4d\	-ra	4a\	-ra	4ff\	-ra
.	.	.	16gg\	.	16gg\	.	.	.	.	.	.	.	.	.
.	.	.	16aa\	.	16aa\	.	.	.	.	.	.	.	.	.
.	.	.	16ff\JJ	.	16ff\JJ	.	.	.	.	.	.	.	.	.
4B\	.	.	16dd\LL	.	16dd\LL	.	4B\	o-	4B\	o-	4f\	pro	4dd\	pro
.	.	.	16ee\	.	16ee\	.	.	.	.	.	.	.	.	.
.	.	.	16ff\	.	16ff\	.	.	.	.	.	.	.	.	.
.	.	.	16dd\JJ	.	16dd\JJ	.	.	.	.	.	.	.	.	.
!	!	!	!	!	!LO:LB:g=original	!	!	!	!	!	!	!	!	!
4G#X\	.	.	16b\LL	.	16b\LL	.	4G#X\	.	4d\	-ra	4g#X\	-no-	4b\	-no-
*	*	*	*	*	*	*	*	*	*	*Xij	*	*	*	*
.	.	.	16cc\	.	16cc\	.	.	.	.	.	.	.	.	.
.	.	.	16dd\	.	16dd\	.	.	.	.	.	.	.	.	.
.	.	.	16b\JJ	.	16b\JJ	.	.	.	.	.	.	.	.	.
!	!	!	!LO:TX:t=P:problem=mixed beam	!	!LO:TX:t=P:problem=mixed beam	!	!	!	!	!	!	!	!	!
8E\L	.	.	16g#X/LL	.	16g#X/LL	.	8E\	-ra	4B\	pro	8g#\	-bis	4dd\	.
.	.	.	16ff\	.	16ff\	.	.	.	.	.	.	.	.	.
8G#\J	.	.	16ee\	.	16ee\	.	8G#\	pro	.	.	8e\	o-	.	.
.	.	.	16dd\JJ	.	16dd\JJ	.	.	.	.	.	.	.	.	.
=50	=50	=50	=50	=50	=50	=50	=50	=50	=50	=50	=50	=50	=50	=50
!	!	!	!LO:LB:g=original	!	!	!	!	!	!	!	!	!	!	!
.	.	.	8qqdd/	.	8qqdd/	.	.	.	.	.	.	.	8qqdd/	.
8A\L	.	.	8cc\L	.	8cc\L	.	8A\L	no-	8A\L	no-	8e\	-ra	8cc\L	.
8D\	.	.	16b\L	.	16b\L	.	8D\J	.	8f\J	.	8a\	pro	16b\L	.
.	.	.	16a\JJ	.	16a\JJ	.	.	.	.	.	.	.	16a\JJ	.
!	!	!	!	!	!LO:TX:t=P:tr = t:problem	!	!	!	!	!	!	!	!	!
8E\	.	.	8a\L	.	4bt\	.	4E\	.	4e\	.	8a\L	no-	4bt\	.
8E\J	.	.	8g#X\J	.	.	.	.	.	.	.	8g#X\J	.	.	.
!LO:TX:a:i:t=Solo	!	!	!	!	!LO:TX:a:i:t=Solo	!	!	!	!	!	!	!	!	!
4AA/	.	.	8a\	.	16a\LL	.	4AA/	-bis	4e\	-bis.	4a\	-bis.	4a\	-bis.
.	.	.	.	.	16aa\	.	.	.	.	.	.	.	.	.
.	.	.	8r	.	16aa\	.	.	.	.	.	.	.	.	.
.	.	.	.	.	16aa\JJ	.	.	.	.	.	.	.	.	.
!LO:TX:t=P:p = piano:problem	!	!	!	!	!	!	!	!	!	!	!	!	!	!
!	!	!LO:DY:b:t=piano	!	!	!	!	!	!	!	!	!	!	!	!
4Gn\	#4| 2	p	4r	.	16ccc#X\LL	.	4r	.	4r	.	4r	.	4r	.
.	.	.	.	.	16aa\	.	.	.	.	.	.	.	.	.
.	.	.	.	.	16aa\	.	.	.	.	.	.	.	.	.
.	.	.	.	.	16aa\JJ	.	.	.	.	.	.	.	.	.
=51	=51	=51	=51	=51	=51	=51	=51	=51	=51	=51	=51	=51	=51	=51
4F\	6	.	1r	.	16ddd\LL	.	1r	.	1r	.	1r	.	1r	.
.	.	.	.	.	16aa\	.	.	.	.	.	.	.	.	.
.	.	.	.	.	16aa\	.	.	.	.	.	.	.	.	.
.	.	.	.	.	16aa\JJ	.	.	.	.	.	.	.	.	.
4C#X/	6 5	.	.	.	16eee\LL	.	.	.	.	.	.	.	.	.
.	.	.	.	.	16aa\	.	.	.	.	.	.	.	.	.
.	.	.	.	.	16aa\	.	.	.	.	.	.	.	.	.
.	.	.	.	.	16aa\JJ	.	.	.	.	.	.	.	.	.
4D\	.	.	.	.	16fff\LL	.	.	.	.	.	.	.	.	.
.	.	.	.	.	16aa\	.	.	.	.	.	.	.	.	.
.	.	.	.	.	16aa\	.	.	.	.	.	.	.	.	.
.	.	.	.	.	16aa\JJ	.	.	.	.	.	.	.	.	.
4G\	#4| 2	.	.	.	16ccc#X\LL	.	.	.	.	.	.	.	.	.
.	.	.	.	.	16aa\	.	.	.	.	.	.	.	.	.
.	.	.	.	.	16aa\	.	.	.	.	.	.	.	.	.
.	.	.	.	.	16aa\JJ	.	.	.	.	.	.	.	.	.
=52	=52	=52	=52	=52	=52	=52	=52	=52	=52	=52	=52	=52	=52	=52
!	!	!	!	!	!LO:LB:g=original	!	!	!	!	!	!	!	!	!
4F\	6	.	1r	.	16ddd\LL	.	1r	.	1r	.	1r	.	1r	.
.	.	.	.	.	16aa\	.	.	.	.	.	.	.	.	.
.	.	.	.	.	16aa\	.	.	.	.	.	.	.	.	.
.	.	.	.	.	16aa\JJ	.	.	.	.	.	.	.	.	.
4C#X/	6 5	.	.	.	16eee\LL	.	.	.	.	.	.	.	.	.
.	.	.	.	.	16aa\	.	.	.	.	.	.	.	.	.
.	.	.	.	.	16aa\	.	.	.	.	.	.	.	.	.
.	.	.	.	.	16aa\JJ	.	.	.	.	.	.	.	.	.
4D\	.	.	.	.	16fff\LL	.	.	.	.	.	.	.	.	.
.	.	.	.	.	16aa\	.	.	.	.	.	.	.	.	.
.	.	.	.	.	16aa\	.	.	.	.	.	.	.	.	.
.	.	.	.	.	16aa\JJ	.	.	.	.	.	.	.	.	.
!	!	!	!	!	!LO:TX:t=P:problem=mixed beam	!	!	!	!	!	!	!	!	!
4Fn\	#4| 2	.	.	.	16g\LL	.	.	.	.	.	.	.	.	.
.	.	.	.	.	16gg\	.	.	.	.	.	.	.	.	.
.	.	.	.	.	16gg\	.	.	.	.	.	.	.	.	.
.	.	.	.	.	16gg\JJ	.	.	.	.	.	.	.	.	.
=53	=53	=53	=53	=53	=53	=53	=53	=53	=53	=53	=53	=53	=53	=53
!LO:LB:g=original	!	!	!	!	!LO:TX:t=P:problem=mixed beam	!	!	!	!	!	!	!	!	!
2F\	#4| 2	.	1r	.	16g\LL	.	1r	.	1r	.	1r	.	1r	.
.	.	.	.	.	16gg\	.	.	.	.	.	.	.	.	.
.	.	.	.	.	16gg\	.	.	.	.	.	.	.	.	.
.	.	.	.	.	16gg\JJ	.	.	.	.	.	.	.	.	.
.	.	.	.	.	16bb\LL	.	.	.	.	.	.	.	.	.
.	.	.	.	.	16gg\	.	.	.	.	.	.	.	.	.
.	.	.	.	.	16gg\	.	.	.	.	.	.	.	.	.
.	.	.	.	.	16gg\JJ	.	.	.	.	.	.	.	.	.
4E\	6n	.	.	.	16ccc\LL	.	.	.	.	.	.	.	.	.
.	.	.	.	.	16gg\	.	.	.	.	.	.	.	.	.
.	.	.	.	.	16gg\	.	.	.	.	.	.	.	.	.
.	.	.	.	.	16gg\JJ	.	.	.	.	.	.	.	.	.
4BB\	6 5	.	.	.	16ddd\LL	.	.	.	.	.	.	.	.	.
.	.	.	.	.	16gg\	.	.	.	.	.	.	.	.	.
.	.	.	.	.	16gg\	.	.	.	.	.	.	.	.	.
.	.	.	.	.	16gg\JJ	.	.	.	.	.	.	.	.	.
=54	=54	=54	=54	=54	=54	=54	=54	=54	=54	=54	=54	=54	=54	=54
4C/	.	.	1r	.	16eee\LL	.	1r	.	1r	.	1r	.	1r	.
.	.	.	.	.	16gg\	.	.	.	.	.	.	.	.	.
.	.	.	.	.	16gg\	.	.	.	.	.	.	.	.	.
.	.	.	.	.	16gg\JJ	.	.	.	.	.	.	.	.	.
4F\	#4| 2	.	.	.	16bb\LL	.	.	.	.	.	.	.	.	.
.	.	.	.	.	16gg\	.	.	.	.	.	.	.	.	.
.	.	.	.	.	16gg\	.	.	.	.	.	.	.	.	.
.	.	.	.	.	16gg\JJ	.	.	.	.	.	.	.	.	.
4E\	6	.	.	.	16ccc\LL	.	.	.	.	.	.	.	.	.
.	.	.	.	.	16gg\	.	.	.	.	.	.	.	.	.
.	.	.	.	.	16gg\	.	.	.	.	.	.	.	.	.
.	.	.	.	.	16gg\JJ	.	.	.	.	.	.	.	.	.
4BB/	6 5	.	.	.	16ddd\LL	.	.	.	.	.	.	.	.	.
.	.	.	.	.	16gg\	.	.	.	.	.	.	.	.	.
.	.	.	.	.	16gg\	.	.	.	.	.	.	.	.	.
.	.	.	.	.	16gg\JJ	.	.	.	.	.	.	.	.	.
=55	=55	=55	=55	=55	=55	=55	=55	=55	=55	=55	=55	=55	=55	=55
!LO:TX:t=P:problem=mixed beam	!	!	!	!	!	!	!	!	!	!	!	!	!	!
8C/L	.	.	1r	.	16eee\LL	.	1r	.	1r	.	1r	.	1r	.
.	.	.	.	.	16ggg\	.	.	.	.	.	.	.	.	.
8B\	.	.	.	.	16ddd\	.	.	.	.	.	.	.	.	.
.	.	.	.	.	16fff\JJ	.	.	.	.	.	.	.	.	.
8c\	.	.	.	.	16eee\LL	.	.	.	.	.	.	.	.	.
.	.	.	.	.	16ggg\	.	.	.	.	.	.	.	.	.
8G#X\J	.	.	.	.	16bb\	.	.	.	.	.	.	.	.	.
.	.	.	.	.	16ddd\JJ	.	.	.	.	.	.	.	.	.
8A\L	.	.	.	.	16ccc\LL	.	.	.	.	.	.	.	.	.
.	.	.	.	.	16eee\	.	.	.	.	.	.	.	.	.
8G#\	.	.	.	.	16bb\	.	.	.	.	.	.	.	.	.
.	.	.	.	.	16ddd\JJ	.	.	.	.	.	.	.	.	.
8A\	.	.	.	.	16ccc\LL	.	.	.	.	.	.	.	.	.
.	.	.	.	.	16eee\	.	.	.	.	.	.	.	.	.
8E\J	.	.	.	.	16gg#X\	.	.	.	.	.	.	.	.	.
.	.	.	.	.	16bb\JJ	.	.	.	.	.	.	.	.	.
=56	=56	=56	=56	=56	=56	=56	=56	=56	=56	=56	=56	=56	=56	=56
8F\L	.	.	1r	.	16aa\LL	.	1r	.	1r	.	1r	.	1r	.
.	.	.	.	.	16ccc\	.	.	.	.	.	.	.	.	.
8E\	.	.	.	.	16gg#X\	.	.	.	.	.	.	.	.	.
.	.	.	.	.	16bb\JJ	.	.	.	.	.	.	.	.	.
8F\	.	.	.	.	16aa\LL	.	.	.	.	.	.	.	.	.
.	.	.	.	.	16ccc\	.	.	.	.	.	.	.	.	.
8C\J	.	.	.	.	16ee\	.	.	.	.	.	.	.	.	.
.	.	.	.	.	16ggn\JJ	.	.	.	.	.	.	.	.	.
8D\	.	.	.	.	16ff\LL	.	.	.	.	.	.	.	.	.
.	.	.	.	.	16aa\	.	.	.	.	.	.	.	.	.
8r	.	.	.	.	16dd\	.	.	.	.	.	.	.	.	.
.	.	.	.	.	16ff\JJ	.	.	.	.	.	.	.	.	.
!	!	!	!	!	!LO:TX:t=P:problem=mixed beam	!	!	!	!	!	!	!	!	!
4r	.	.	.	.	16b\LL	.	.	.	.	.	.	.	.	.
.	.	.	.	.	16dd\	.	.	.	.	.	.	.	.	.
.	.	.	.	.	16f/	.	.	.	.	.	.	.	.	.
.	.	.	.	.	16a/JJ	.	.	.	.	.	.	.	.	.
=57	=57	=57	=57	=57	=57	=57	=57	=57	=57	=57	=57	=57	=57	=57
4r	.	.	1r	.	16d/LL	.	1r	.	1r	.	1r	.	1r	.
.	.	.	.	.	16f/	.	.	.	.	.	.	.	.	.
.	.	.	.	.	16B/	.	.	.	.	.	.	.	.	.
.	.	.	.	.	16d/JJ	.	.	.	.	.	.	.	.	.
8r	.	.	.	.	16G/LL	.	.	.	.	.	.	.	.	.
.	.	.	.	.	16B/	.	.	.	.	.	.	.	.	.
8GG/	.	.	.	.	16d/	.	.	.	.	.	.	.	.	.
.	.	.	.	.	16f/JJ	.	.	.	.	.	.	.	.	.
8C\L	.	.	.	.	16e/LL	.	.	.	.	.	.	.	.	.
.	.	.	.	.	16g/	.	.	.	.	.	.	.	.	.
8E\J	.	.	.	.	16cc/	.	.	.	.	.	.	.	.	.
.	.	.	.	.	16cc/JJ	.	.	.	.	.	.	.	.	.
8G\L	.	.	.	.	16b\LL	.	.	.	.	.	.	.	.	.
.	.	.	.	.	16dd\	.	.	.	.	.	.	.	.	.
8B\J	.	.	.	.	16ff\	.	.	.	.	.	.	.	.	.
.	.	.	.	.	16ff\JJ	.	.	.	.	.	.	.	.	.
=58	=58	=58	=58	=58	=58	=58	=58	=58	=58	=58	=58	=58	=58	=58
!LO:LB:g=original	!	!	!	!	!LO:LB:g=original	!	!	!	!	!	!	!	!	!
8c\L	.	.	1r	.	16ee\LL	.	1r	.	1r	.	1r	.	1r	.
.	.	.	.	.	16gg\	.	.	.	.	.	.	.	.	.
8E\J	.	.	.	.	16ccc\	.	.	.	.	.	.	.	.	.
.	.	.	.	.	16ccc\JJ	.	.	.	.	.	.	.	.	.
8D/L	.	.	.	.	16bb\LL	.	.	.	.	.	.	.	.	.
.	.	.	.	.	16gg\	.	.	.	.	.	.	.	.	.
8BB/J	.	.	.	.	16ff\	.	.	.	.	.	.	.	.	.
.	.	.	.	.	16ff\JJ	.	.	.	.	.	.	.	.	.
8C\L	.	.	.	.	16ee\LL	.	.	.	.	.	.	.	.	.
.	.	.	.	.	16gg\	.	.	.	.	.	.	.	.	.
8E\J	.	.	.	.	16ccc\	.	.	.	.	.	.	.	.	.
.	.	.	.	.	16ccc\JJ	.	.	.	.	.	.	.	.	.
8D/L	.	.	.	.	16bb\LL	.	.	.	.	.	.	.	.	.
.	.	.	.	.	16gg\	.	.	.	.	.	.	.	.	.
8BB/J	.	.	.	.	16ff\	.	.	.	.	.	.	.	.	.
.	.	.	.	.	16ff\JJ	.	.	.	.	.	.	.	.	.
=59	=59	=59	=59	=59	=59	=59	=59	=59	=59	=59	=59	=59	=59	=59
!LO:TX:t=P:problem=mixed beam	!	!	!	!	!	!	!	!	!	!	!	!	!	!
8C/L	.	.	1r	.	16ee\LL	.	1r	.	1r	.	1r	.	1r	.
.	.	.	.	.	16gg\	.	.	.	.	.	.	.	.	.
8F\J	.	.	.	.	16cc\	.	.	.	.	.	.	.	.	.
.	.	.	.	.	16dd\JJ	.	.	.	.	.	.	.	.	.
!LO:TX:t=P:problem=mixed beam	!	!	!	!	!	!	!	!	!	!	!	!	!	!
!	!	!	!	!	!LO:TX:t=P:tr = t:problem	!	!	!	!	!	!	!	!	!
8G\L	.	.	.	.	4ddT\	.	.	.	.	.	.	.	.	.
8GG/J	.	.	.	.	.	.	.	.	.	.	.	.	.	.
!LO:TX:t=P:problem=mixed beam	!	!	!	!	!	!	!	!	!	!	!	!	!	!
8C/L	.	.	.	.	8cc\L	.	.	.	.	.	.	.	.	.
8c\J	.	.	.	.	8cccJ 8ee 8g 8c\	.	.	.	.	.	.	.	.	.
!	!	!	!	!	!	!LO:DY:b:t=for.	!	!	!	!	!	!	!	!
4C/	.	.	.	.	4ccc 4ee 4g 4c\	f	.	.	.	.	.	.	.	.
=60	=60	=60	=60	=60	=60	=60	=60	=60	=60	=60	=60	=60	=60	=60
!LO:TX:t=P:f = for:problem	!	!	!	!	!	!	!	!	!	!	!	!	!	!
!LO:TX:a:i:t=Tutti	!	!	!	!	!LO:TX:a:i:t=Tutti	!	!	!	!	!	!	!	!	!
!	!	!	!	!	!	!	!LO:LB:g=original	!	!	!	!	!	!	!
!	!	!LO:DY:b:t=for	!	!	!	!	!	!	!	!	!	!	!	!
2C/	.	f	8.cc\L	.	8.ee\L	.	8c\	A-	8.c\L	Ag-	8.g\	A-	8.ee\L	Ag-
.	.	.	.	.	.	.	8c\	-gnus	.	.	.	.	.	.
.	.	.	16dd\Jk	.	16ff\K	.	.	.	16d\Jk	.	16g\	-gnus	16ff\Jk	.
.	.	.	8ee\L	.	8gg\	.	4c\	de-	8e\L	-nus	4cc\	de-	8gg\L	-nus
.	.	.	8ff\J	.	8aa\J	.	.	.	8f\J	.	.	.	8aa\J	.
8r	.	.	8ee\L	.	8gg\L	.	8c\	-i	8e\L	de-	8g\	-i	8gg\L	de-
8GG/	.	.	8dd\J	.	8ff\	.	8G\	qui	8d\J	.	8g\	qui	8ff\J	.
4C/	.	.	4cc\	.	8ee\	.	8c\	tol-	8c\	-i	8cc\	tol-	8ee\	-i
.	.	.	.	.	8ee\J	.	8c\	-lis	8c\	qui	8cc\	-lis	8ee\	qui
=61	=61	=61	=61	=61	=61	=61	=61	=61	=61	=61	=61	=61	=61	=61
4r	.	.	(8dd\L	.	(8ff\L	.	1r	.	8d\L	tol-	1r	.	8ff\L	tol-
.	.	.	8cc\)	.	8ee\)	.	.	.	8c\J	.	.	.	8ee\J	.
4C/	.	.	(8ff\	.	(8aa\	.	.	.	8f\L	.	.	.	8aa\L	.
.	.	.	8ee\J)	.	8gg\J)	.	.	.	8e\J	.	.	.	8gg\J	.
4r	.	.	(8aa\L	.	(8ccc\L	.	.	.	8a\L	.	.	.	8ccc\L	-lis
.	.	.	8gg\)	.	8bb\)	.	.	.	8g\J	.	.	.	8bb\J	.
4C/	.	.	(8ff\	.	(8aa\	.	.	.	8f\	-lis	.	.	8aa\L	pec-
.	.	.	8ee\J)	.	8gg\J)	.	.	.	8e\	pec-	.	.	8gg\J	.
=62	=62	=62	=62	=62	=62	=62	=62	=62	=62	=62	=62	=62	=62	=62
!	!	!	!	!	!LO:PB:g=original	!	!	!	!	!	!	!	!	!
8r	.	.	16ee\LL	.	16gg\LL	.	8r	.	16e\LL	-ca-	8r	.	16gg\LL	-ca-
.	.	.	16dd\JJ	.	16ff\JJ	.	.	.	16d\JJ	.	.	.	16ff\JJ	.
!LO:TX:t=P:problem=mixed beam	!	!	!	!	!	!	!	!	!	!	!	!	!	!
8G\L	.	.	4cc\	.	4ee\	.	8G\	pec-	4c\	.	8g\	pec-	4ee\	.
8G\	.	.	.	.	.	.	8G\	-ca-	.	.	8g\	-ca-	.	.
8GG/J	.	.	8b\	.	8dd\	.	8G\	-ta	8B\	-ta	8g\	-ta	8dd\	-ta
!	!	!	!	!	!	!	!	!	!	!	!	!	!LO:LB:g=original	!
8r	.	.	16dd\LL	.	16ff\LL	.	8c\	mun-	16d\LL	mun-	8cc\	mun-	16ff\LL	mun-
.	.	.	16cc\	.	16ee\	.	.	.	16c\JJ	.	.	.	16ee\JJ	.
8C/	.	.	16ff\	.	16aa\	.	8C/	-di	16f\LL	.	8cc\	-di	16aa\LL	-di
.	.	.	16ee\JJ	.	16gg\JJ	.	.	.	16e\JJ	.	.	.	16gg\JJ	.
4C/	.	.	4ee\	.	4gg\	.	4r	.	4e\	-di	4r	.	4gg\	.
=63	=63	=63	=63	=63	=63	=63	=63	=63	=63	=63	=63	=63	=63	=63
!LO:LB:g=original	!	!	!LO:LB:g=original	!	!	!	!	!	!	!	!	!	!	!
4GG/	.	.	8b\L	.	8dd\L	.	8G\	mi-	4G/	mi-	8b\	mi-	8dd\	par-
.	.	.	8cc\J	.	8ee\J	.	8G\	-se-	.	.	8cc\	-se-	8ee\	-ce
.	.	.	8qqee/	.	8qqgg/	.	.	.	.	.	.	.	8qqgg/	.
4GG/	.	.	8dd\L	.	8ff\L	.	8G\	-re-	4G/	-se-	8dd\L	-re-	8ff\	no-
.	.	.	16cc\L	.	16ee\L	.	8G\	-re	.	.	16cc\L	-re	16ee\LL	-bis
.	.	.	16b\JJ	.	16dd\JJ	.	.	.	.	.	16b\JJ	.	16dd\JJ	.
.	.	.	8qqf/	.	8qqdd/	.	.	.	.	.	8qqf	.	8qqdd/	.
8r	.	.	8e/L	.	8cc\L	.	4c\	no-	4c\	-re-	8e\L	no-	8cc\	do-
8C/L	.	.	16g/L	.	16ee\L	.	.	.	.	.	16g\L	.	16ee\LL	-mi-
.	.	.	16f/JJ	.	16dd\JJ	.	.	.	.	.	16f\JJ	.	16dd\JJ	.
8C/J	.	.	4e/	.	4cc\	.	4c\	-bis	4c\	-re	4e\	-bis	4cc\	-ne
8r	.	.	.	.	.	.	.	.	.	.	.	.	.	.
=64	=64	=64	=64	=64	=64	=64	=64	=64	=64	=64	=64	=64	=64	=64
8r	.	.	8e/L	.	8cc\L	.	2r	.	1G	.	8e\	mi-	8cc\	mi-
8c\	.	.	8e/J	.	8cc\J	.	.	.	.	.	8e\	-se-	8cc\	-se-
!	!	!	!LO:TX:t=P:problem=mixed beam	!	!	!	!	!	!	!	!	!	!	!
8r	.	.	8e/L	.	8cc\L	.	.	.	.	.	8e\L	-re-	8cc\	-re-
8c\	.	.	16b\L	.	16dd\L	.	.	.	.	.	16b\L	-re	16dd\LL	-re
.	.	.	16cc\JJ	.	16ee\JJ	.	.	.	.	.	16cc\JJ	.	16ee\JJ	.
8r	.	.	16cc\LL	.	16ee\LL	.	8r	.	.	.	16cc\LL	no-	16ee\LL	no-
.	.	.	16b\	.	16dd\	.	.	.	.	.	16b\	.	16dd\	.
8G\	.	.	16a#X\	.	16cc#X\	.	8G\	no-	.	.	16a#X\	.	16cc#X\	.
.	.	.	16b\JJ	.	16dd\JJ	.	.	.	.	.	16b\JJ	.	16dd\JJ	.
4G\	.	.	4b\	.	4dd\	.	4G\	-bis	.	.	4b\	-bis	4dd\	-bis
=65	=65	=65	=65	=65	=65	=65	=65	=65	=65	=65	=65	=65	=65	=65
!	!	!	!	!	!	!	!	!	!	!	!LO:LB:g=original	!	!	!
!	!	!	!	!	!	!	!LO:LB:g=original	!	!	!	!	!	!	!
8r	.	.	8b\L	.	8dd\L	.	2r	.	2G/	.	8b\	mi-	8dd\	mi-
8G\	.	.	8b\J	.	8dd\J	.	.	.	.	.	8b\	-se-	8dd\	-se-
8r	.	.	8b\L	.	8dd\L	.	.	.	.	.	8b\L	-re-	8dd\	-re-
8G\	.	.	16cc\L	.	16ee\L	.	.	.	.	.	16cc\L	-re	16ee\LL	-re
.	.	.	16dd\JJ	.	16ff\JJ	.	.	.	.	.	16dd\JJ	.	16ff\JJ	.
8r	.	.	16dd\LL	.	16ff\LL	.	8r	.	4G/	.	16dd\LL	no-	16ff\LL	no-
.	.	.	16cc\	.	16ee\	.	.	.	.	.	16cc\	.	16ee\	.
8c\L	.	.	16b\	.	16dd#X\	.	8c\	no-	.	.	16b\	.	16dd#X\	.
.	.	.	16cc\JJ	.	16ee\JJ	.	.	.	.	.	16cc\JJ	.	16ee\JJ	.
8c\	.	.	8cc\	.	8ee\L	.	8c\	-bis	4r	.	8cc\	-bis.	8ee\	-bis:
8E\J	.	.	8g/	.	8gg\J	.	8E\	o-	.	.	8r	.	8r	.
=66	=66	=66	=66	=66	=66	=66	=66	=66	=66	=66	=66	=66	=66	=66
!	!	!	!	!	!	!	!	!	!	!	!	!	!LO:LB:g=original	!
!	!	!	!	!	!	!	!	!	!	!	!	!	!LO:TX:a:i:t=1.	!
!	!	!	!	!	!LO:LB:g=original	!	!	!	!	!	!	!	!	!
8F\	.	.	16a/LL	.	16aa\LL	.	8F\	-ra	1r	.	1r	.	1r	.
.	.	.	16g/	.	16gg\	.	.	.	.	.	.	.	.	.
8r	.	.	16f/	.	16ff\	.	8r	.	.	.	.	.	.	.
.	.	.	16e/JJ	.	16ee\JJ	.	.	.	.	.	.	.	.	.
4r	.	.	16f/LL	.	16ff\LL	.	4r	.	.	.	.	.	.	.
.	.	.	16g/	.	16gg\	.	.	.	.	.	.	.	.	.
.	.	.	16a/	.	16aa\	.	.	.	.	.	.	.	.	.
.	.	.	16b/JJ	.	16bb\JJ	.	.	.	.	.	.	.	.	.
8r	.	.	16cc/LL	.	16ccc\LL	.	2r	.	.	.	.	.	.	.
.	.	.	16b/	.	16bb\	.	.	.	.	.	.	.	.	.
8F\L	.	.	16cc/	.	16ccc\	.	.	.	.	.	.	.	.	.
.	.	.	16a/JJ	.	16aa\JJ	.	.	.	.	.	.	.	.	.
8E\	.	.	8g/L	.	8gg\L	.	.	.	.	.	.	.	.	.
8BB\J	.	.	8f/J	.	8ff\J	.	.	.	.	.	.	.	.	.
=67	=67	=67	=67	=67	=67	=67	=67	=67	=67	=67	=67	=67	=67	=67
!	!	!	!LO:LB:g=original	!	!	!	!	!	!	!	!	!	!	!
.	.	.	8qqf/	.	8qqff/	.	.	.	.	.	.	.	.	.
8C/	.	.	8e/L	.	8ee\L	.	4r	.	2r	.	2r	.	4r	.
8r	.	.	16d/L	.	16dd\L	.	.	.	.	.	.	.	.	.
.	.	.	16c/JJ	.	16cc\JJ	.	.	.	.	.	.	.	.	.
.	.	.	8qqee/	.	.	.	.	.	.	.	.	.	.	.
8B\L	.	.	8dd\L	.	8ff\L	.	8r	.	.	.	.	.	8r	.
8c\J	.	.	8cc\J	.	8ee\J	.	8c\	pro	.	.	.	.	8ee\	no-
!	!	!	!LO:TX:t=P:tr = t:problem	!	!LO:TX:t=P:tr = t:problem	!	!	!	!LO:TX:t=P:tr = t:problem	!	!	!	!	!
4G\	6 4	.	4ccT\	.	4eet\	.	4G\	no-	4cT\	no-	4g\	no-	4ee\	.
!	!	!	!	!	!	!	!	!	!	!	!	!	!LO:TX:t=P:tr = t:problem	!
4GG/	5 3	.	4b\	.	4dd\	.	4GG/	-bis	4B\	-bis	4g\	-bis	4ddT\	-bis
=68	=68	=68	=68	=68	=68	=68	=68	=68	=68	=68	=68	=68	=68	=68
*	*	*	*^	*	*	*	*	*	*	*	*	*	*	*
*tremolo	*	*	*tremolo	*tremolo	*	*	*	*	*	*	*	*	*	*	*
!LO:TX:b:i:t=V&colon;S&colon;	!	!	!	!	!	!	!	!	!	!	!	!	!	!	!
8c\L	.	.	16ee/LL	16cc\LL	.	8ee\L	.	4c\	mi-	4c\	mi-	4g\	ex-	4ee\	mi-
.	.	.	16ee/	16cc\	.	.	.	.	.	.	.	.	.	.	.
8c\	.	.	16ee/	16cc\	.	8ee\J	.	.	.	.	.	.	.	.	.
.	.	.	16ee/	16cc\	.	.	.	.	.	.	.	.	.	.	.
8c\	.	.	16ee/	16cc\	.	8.ccc\L	.	4c\	-se-	4c\	-se-	4g\	-au-	4ee\	-se-
.	.	.	16ee/	16cc\	.	.	.	.	.	.	.	.	.	.	.
8c\J	.	.	16ee/	16cc\	.	.	.	.	.	.	.	.	.	.	.
.	.	.	16ee/JJ	16cc\JJ	.	16ee\Jk	.	.	.	.	.	.	.	.	.
!LO:PB:g=original	!	!	!	!	!	!	!	!	!	!	!	!	!	!	!
8B\L	6 5	.	16ff/LL	16dd\LL	.	8ff\L	.	4B\	-re-	4d\	-re-	4g\	-di	4ff\	-re-
.	.	.	16ff/	16dd\	.	.	.	.	.	.	.	.	.	.	.
8B\	.	.	16ff/	16dd\	.	8ddd\	.	.	.	.	.	.	.	.	.
.	.	.	16ff/	16dd\	.	.	.	.	.	.	.	.	.	.	.
8B\	.	.	16ff/	16dd\	.	8bb\	.	4B\	-re	4d\	-re	4g\	nos	4ff\	-re
.	.	.	16ff/	16dd\	.	.	.	.	.	.	.	.	.	.	.
8B\J	.	.	16ff/	16dd\	.	8ff\J	.	.	.	.	.	.	.	.	.
.	.	.	16ff/JJ	16dd\JJ	.	.	.	.	.	.	.	.	.	.	.
=69	=69	=69	=69	=69	=69	=69	=69	=69	=69	=69	=69	=69	=69	=69	=69
!	!	!	!	!	!	!	!	!	!	!LO:TX:t=P:problem=2\right&colon; global	!	!	!	!	!
8c\L	.	.	16ee/LL	16cc\LL	.	16ee\LL	.	2c\	no-	2c\	no	4.g\	do-	2ee\	no-
.	.	.	16ee/	16cc\	.	16ee\J	.	.	.	.	.	.	.	.	.
8c\	.	.	16ee/	16cc\	.	8eem/m\J	.	.	.	.	.	.	.	.	.
.	.	.	16ee/	16cc\	.	.	.	.	.	.	.	.	.	.	.
8c\	.	.	16ee/	16cc\	.	8ccc\L	.	.	.	.	.	.	.	.	.
.	.	.	16ee/	16cc\	.	.	.	.	.	.	.	.	.	.	.
8c\J	.	.	16ee/	16cc\	.	8ee\J	.	.	.	.	.	8g\	-mi-	.	.
.	.	.	16ee/JJ	16cc\JJ	.	.	.	.	.	.	.	.	.	.	.
8B\L	.	.	16ff/LL	16dd\LL	.	16ff\LL	.	2B\	-bis	2d\	.	2g\	-ne	2ff\	-bis
.	.	.	16ff/	16dd\	.	16dd\	.	.	.	.	.	.	.	.	.
8B\	.	.	16ff/	16dd\	.	16bb\	.	.	.	.	.	.	.	.	.
.	.	.	16ff/	16dd\	.	16ff\JJ	.	.	.	.	.	.	.	.	.
8B\	.	.	16ff/	16dd\	.	16ddd\LL	.	.	.	.	.	.	.	.	.
.	.	.	16ff/	16dd\	.	16bb\	.	.	.	.	.	.	.	.	.
8B\J	.	.	16ff/	16dd\	.	16ff\	.	.	.	.	.	.	.	.	.
.	.	.	16ff/JJ	16dd\JJ	.	16dd\JJ	.	.	.	.	.	.	.	.	.
=70	=70	=70	=70	=70	=70	=70	=70	=70	=70	=70	=70	=70	=70	=70	=70
!	!	!	!	!	!	!LO:LB:g=original	!	!	!	!	!	!	!	!	!
8c\L	.	.	16ee/LL	16cc\LL	.	16ee\LL	.	4c\	mi-	1c	.	4g\	mi-	4ee\	mi-
.	.	.	16ee/	16cc\	.	16ccc 16ee\	.	.	.	.	.	.	.	.	.
8c\	.	.	16ee/	16cc\	.	16ccc 16ee\	.	.	.	.	.	.	.	.	.
.	.	.	16ee/	16cc\	.	16cccJJ 16ee\	.	.	.	.	.	.	.	.	.
*	*	*	*	*	*	*tremolo	*	*	*	*	*	*	*	*	*
8c\	.	.	16ee/	16cc\	.	16ccc 16ee\LL	.	4c\	-se-	.	.	4g\	-se-	4ee\	-se-
.	.	.	16ee/	16cc\	.	16ccc 16ee\	.	.	.	.	.	.	.	.	.
8c\J	.	.	16ee/	16cc\	.	16ccc 16ee\	.	.	.	.	.	.	.	.	.
.	.	.	16ee/JJ	16cc\JJ	.	16ccc 16ee\JJ	.	.	.	.	.	.	.	.	.
*Xtremolo	*	*	*	*	*	*	*	*	*	*	*	*	*	*	*
8A\L	.	.	16ee/LL	16cc\LL	.	16ccc 16ee\LL	.	4A\	-re-	.	.	4a\	-re-	4ee\	-re-
.	.	.	16ee/	16cc\	.	16ccc 16ee\	.	.	.	.	.	.	.	.	.
8A\	.	.	16ee/	16cc\	.	16ccc 16ee\	.	.	.	.	.	.	.	.	.
.	.	.	16ee/	16cc\	.	16ccc 16ee\JJ	.	.	.	.	.	.	.	.	.
8E\	6	.	16ee/	16cc\	.	16ccc 16ee\LL	.	4E\	-re	.	.	4e\	-re	4gg\	-re
.	.	.	16ee/	16cc\	.	16ccc 16ee\	.	.	.	.	.	.	.	.	.
8E\J	.	.	16ee/	16cc\	.	16ccc 16ee\	.	.	.	.	.	.	.	.	.
.	.	.	16ee/JJ	16cc\JJ	.	16ccc 16ee\JJ	.	.	.	.	.	.	.	.	.
=71	=71	=71	=71	=71	=71	=71	=71	=71	=71	=71	=71	=71	=71	=71	=71
*tremolo	*	*	*	*tremolo	*	*	*	*	*	*	*	*	*	*	*
!	!	!	!	!	!	!	!	!	!	!	!	!LO:LB:g=original	!	!	!
8F\L	.	.	16ff/LL	16dd\LL	.	16ddd 16ff\LL	.	2F\	no-	2A/	no-	4d\	no-	2ff\	no-
.	.	.	16ff/	16dd\	.	16ddd 16ff\	.	.	.	.	.	.	.	.	.
8F\	.	.	16ff/	16dd\	.	16ddd 16ff\	.	.	.	.	.	.	.	.	.
.	.	.	16ff/	16dd\	.	16ddd 16ff\JJ	.	.	.	.	.	.	.	.	.
8F\	.	.	16ff/	16dd\	.	16ddd 16ff\LL	.	.	.	.	.	4dd\	.	.	.
.	.	.	16ff/	16dd\	.	16ddd 16ff\	.	.	.	.	.	.	.	.	.
8F\J	.	.	16ff/	16dd\	.	16ddd 16ff\	.	.	.	.	.	.	.	.	.
.	.	.	16ff/JJ	16dd\JJ	.	16ddd 16ff\JJ	.	.	.	.	.	.	.	.	.
*Xtremolo	*	*	*	*	*	*	*	*	*	*	*	*	*	*	*
!LO:TX:t=P:problem=mixed beam	!	!	!	!	!	!	!	!	!	!	!	!	!	!	!
8G\L	.	.	16ee/LL	16g\LL	.	16ccc 16ee\LL	.	4G\	.	2G/	.	4cc\	.	4ee\	.
.	.	.	16ee/	16g\	.	16ccc 16ee\	.	.	.	.	.	.	.	.	.
8G\	.	.	16ee/	16g\	.	16ccc 16ee\	.	.	.	.	.	.	.	.	.
.	.	.	16ee/JJ	16g\JJ	.	16ccc 16ee\JJ	.	.	.	.	.	.	.	.	.
8GG/	.	.	16dd/LL	16g\LL	.	16bb 16dd\LL	.	4GG/	.	.	.	4b\	.	4dd\	.
.	.	.	16dd/	16g\	.	16bb 16dd\	.	.	.	.	.	.	.	.	.
8GG/J	.	.	16dd/	16g\	.	16bb 16dd\	.	.	.	.	.	.	.	.	.
.	.	.	16dd/JJ	16g\JJ	.	16bb 16dd\JJ	.	.	.	.	.	.	.	.	.
*	*	*	*	*	*	*Xtremolo	*	*	*	*	*	*	*	*	*
*	*	*	*Xtremolo	*Xtremolo	*	*	*	*	*	*	*	*	*	*	*
=72	=72	=72	=72	=72	=72	=72	=72	=72	=72	=72	=72	=72	=72	=72	=72
!	!	!	!LO:LB:g=original	!LO:LB:g=original	!	!	!	!	!	!	!	!	!	!	!
8C/	.	.	8ee/	8g\	.	8ccc 8ee\	.	8C/	-bis	8G/	-bis	8cc\	-bis	8ee\	-bis
8r	.	.	8r	8rgyy	.	8r	.	8r	.	8r	.	8r	.	8r	.
4r	.	.	4r	4rgyy	.	4r	.	4r	.	4r	.	4r	.	4r	.
8r	.	.	8re	2rgyy	.	8r	.	8r	.	8r	.	8r	.	8r	.
*	*	*	*	*	*	*	*	*	*	*	*ij	*	*ij	*	*
!LO:TX:t=P:problem=mixed beam	!	!	!	!	!	!	!	!	!	!	!	!	!	!	!
8E\L	.	.	8ee\L	.	.	8gg\L	.	8E\	pro	8c\	no-	8cc\	no-	8gg\	no-
8D\	.	.	8ff\	.	.	8aa\	.	8D/L	no-	4d\	.	8a\L	.	4ff\	.
8GG/J	.	.	8dd\J	.	.	8bb\J	.	8GG/J	.	.	.	8b\J	.	.	.
*	*	*	*v	*v	*	*	*	*	*	*	*	*	*	*	*
=73	=73	=73	=73	=73	=73	=73	=73	=73	=73	=73	=73	=73	=73	=73
8C/	.	.	8ee\	.	8ccc\	.	8C/	-bis	8G/	-bis	8cc\	-bis	8ee\	-bis
*	*	*	*	*	*	*	*	*	*	*Xij	*	*Xij	*	*
8r	.	.	8r	.	8r	.	8r	.	8r	.	8r	.	8r	.
4r	.	.	4r	.	4r	.	4r	.	4r	.	4r	.	4r	.
8r	.	.	8r	.	8r	.	8r	.	8r	.	8r	.	8r	.
8C/	.	.	8ee\L	.	8gg\L	.	8C/	pro	8G/	no-	8cc\	no-	8ee\	no-
4GG/	.	.	8dd\	.	8ff\	.	4GG/	no-	4B\	.	4g\	.	4dd\	.
.	.	.	8b\J	.	8dd\J	.	.	.	.	.	.	.	.	.
=74	=74	=74	=74	=74	=74	=74	=74	=74	=74	=74	=74	=74	=74	=74
*tremolo	*	*	*	*	*	*	*	*	*	*	*	*	*	*
!	!	!	!LO:TX:t=P:problem=mixed beam	!	!	!	!	!	!	!	!	!	!LO:TX:a:i:t=c	!
8C/L	.	.	8cc/L	.	8ee\L	.	4C/	-bis.	4c\	-bis	4g\	-bis.	4cc\	-bis.
8C/	.	.	8cc 8e 8G/	.	8ccc 8ee\	.	.	.	.	.	.	.	.	.
8C/	.	.	8cc 8e 8G/	.	8ccc 8ee\	.	4r	.	4r	.	4r	.	4r	.
8C/J	.	.	8ccJ 8e 8G/	.	8cccJ 8ee\	.	.	.	.	.	.	.	.	.
*Xtremolo	*	*	*	*	*	*	*	*	*	*	*	*	*	*
!	!	!	!	!	!	!	!LO:TX:b:i:t=V.. Salve.	!	!LO:TX:b:i:t=Salve Segitur.	!	!LO:TX:b:i:t=Salve S(e)quitur	!	!LO:TX:b:i:t=Salve Seq&colon;	!
4C/	.	.	4cc 4e 4G/	.	4ccc 4ee\	.	2r	.	2r	.	2r	.	2r	.
!	!	!	!LO:TX:b:i:t=V.. Salve.	!	!	!	!	!	!	!	!	!	!	!
4r	.	.	4r	.	4r	.	.	.	.	.	.	.	.	.
==	==	==	==	==	==	==	==	==	==	==	==	==	==	==
*-	*-	*-	*-	*-	*-	*-	*-	*-	*-	*-	*-	*-	*-	*-
!!!system-decoration: [(g1)][(g2)]s7
!!!AIN: 1 alto 1 bass 1 organ 1 soprn 1 tenor 2 violn
!!!ENC: Marcin Jachim
!!!END: 2020-08-18
!!!ENC: Kamil Watkowski
!!!END: 2021-11-27
!!!RDF**kern: | = vertical stroke
!!!RDF**kern: > = above
!!!RDF**kern: < = below
